/PROG  H001.LS
/ATTR
OWNER       = MNEDITOR;
COMMENT     = "";
PROG_SIZE   = 636;
CREATE      = DATE 23-01-07  TIME 11:59:14;
MODIFIED    = DATE 23-01-07  TIME 12:02:18;
FILE_NAME   = ;
VERSION     = 0;
LINE_COUNT  = 4;
MEMORY_SIZE = 992;
PROTECT     = READ_WRITE;
TCD:  STACK_SIZE    = 0,
      TASK_PRIORITY = 50,
      TIME_SLICE    = 0,
      BUSY_LAMP_OFF = 0,
      ABORT_REQUEST = 0,
      PAUSE_REQUEST = 0;
DEFAULT_GROUP    = 1,*,*,*,*;
CONTROL_CODE     = 00000000 00000000;
/MN
   1:J P[1] 100% FINE    ;
   2:L P[2] 100mm/sec CNT100    ;
   3:L P[3] 100mm/sec CNT100    ;
   4:L P[4] 100mm/sec CNT100    ;
   5:L P[5] 100mm/sec CNT100    ;
   6:L P[6] 100mm/sec CNT100    ;
   7:L P[7] 100mm/sec CNT100    ;
   8:L P[8] 100mm/sec CNT100    ;
   9:L P[9] 100mm/sec CNT100    ;
   10:L P[10] 100mm/sec CNT100    ;
   11:L P[11] 100mm/sec CNT100    ;
   12:L P[12] 100mm/sec CNT100    ;
   13:L P[13] 100mm/sec CNT100    ;
   14:L P[14] 100mm/sec CNT100    ;
   15:L P[15] 100mm/sec CNT100    ;
   16:L P[16] 100mm/sec CNT100    ;
   17:L P[17] 100mm/sec CNT100    ;
   18:L P[18] 100mm/sec CNT100    ;
   19:L P[19] 100mm/sec CNT100    ;
   20:L P[20] 100mm/sec CNT100    ;
   21:L P[21] 100mm/sec CNT100    ;
   22:L P[22] 100mm/sec CNT100    ;
   23:L P[23] 100mm/sec CNT100    ;
   24:L P[24] 100mm/sec CNT100    ;
   25:L P[25] 100mm/sec CNT100    ;
   26:L P[26] 100mm/sec CNT100    ;
   27:L P[27] 100mm/sec CNT100    ;
   28:L P[28] 100mm/sec CNT100    ;
   29:L P[29] 100mm/sec CNT100    ;
   30:L P[30] 100mm/sec CNT100    ;
   31:L P[31] 100mm/sec CNT100    ;
   32:L P[32] 100mm/sec CNT100    ;
   33:L P[33] 100mm/sec CNT100    ;
   34:L P[34] 100mm/sec CNT100    ;
   35:L P[35] 100mm/sec CNT100    ;
   36:L P[36] 100mm/sec CNT100    ;
   37:L P[37] 100mm/sec CNT100    ;
   38:L P[38] 100mm/sec CNT100    ;
   39:L P[39] 100mm/sec CNT100    ;
   40:L P[40] 100mm/sec CNT100    ;
   41:L P[41] 100mm/sec CNT100    ;
   42:L P[42] 100mm/sec CNT100    ;
   43:L P[43] 100mm/sec CNT100    ;
   44:L P[44] 100mm/sec CNT100    ;
   45:L P[45] 100mm/sec CNT100    ;
   46:L P[46] 100mm/sec CNT100    ;
   47:L P[47] 100mm/sec CNT100    ;
   48:L P[48] 100mm/sec CNT100    ;
   49:L P[49] 100mm/sec CNT100    ;
   50:L P[50] 100mm/sec CNT100    ;
   51:L P[51] 100mm/sec CNT100    ;
   52:L P[52] 100mm/sec CNT100    ;
   53:L P[53] 100mm/sec CNT100    ;
   54:L P[54] 100mm/sec CNT100    ;
   55:L P[55] 100mm/sec CNT100    ;
   56:L P[56] 100mm/sec CNT100    ;
   57:L P[57] 100mm/sec CNT100    ;
   58:L P[58] 100mm/sec CNT100    ;
   59:L P[59] 100mm/sec CNT100    ;
   60:L P[60] 100mm/sec CNT100    ;
   61:L P[61] 100mm/sec CNT100    ;
   62:L P[62] 100mm/sec CNT100    ;
   63:L P[63] 100mm/sec CNT100    ;
   64:L P[64] 100mm/sec CNT100    ;
   65:L P[65] 100mm/sec CNT100    ;
   66:L P[66] 100mm/sec CNT100    ;
   67:L P[67] 100mm/sec CNT100    ;
   68:L P[68] 100mm/sec CNT100    ;
   69:L P[69] 100mm/sec CNT100    ;
   70:L P[70] 100mm/sec CNT100    ;
   71:L P[71] 100mm/sec CNT100    ;
   72:L P[72] 100mm/sec CNT100    ;
   73:L P[73] 100mm/sec CNT100    ;
   74:L P[74] 100mm/sec CNT100    ;
   75:L P[75] 100mm/sec CNT100    ;
   76:L P[76] 100mm/sec CNT100    ;
   77:L P[77] 100mm/sec CNT100    ;
   78:L P[78] 100mm/sec CNT100    ;
   79:L P[79] 100mm/sec CNT100    ;
   80:L P[80] 100mm/sec CNT100    ;
   81:L P[81] 100mm/sec CNT100    ;
   82:L P[82] 100mm/sec CNT100    ;
   83:L P[83] 100mm/sec CNT100    ;
   84:L P[84] 100mm/sec CNT100    ;
   85:L P[85] 100mm/sec CNT100    ;
   86:L P[86] 100mm/sec CNT100    ;
   87:L P[87] 100mm/sec CNT100    ;
   88:L P[88] 100mm/sec CNT100    ;
   89:L P[89] 100mm/sec CNT100    ;
   90:L P[90] 100mm/sec CNT100    ;
   91:L P[91] 100mm/sec CNT100    ;
   92:L P[92] 100mm/sec CNT100    ;
   93:L P[93] 100mm/sec CNT100    ;
   94:L P[94] 100mm/sec CNT100    ;
   95:L P[95] 100mm/sec CNT100    ;
   96:L P[96] 100mm/sec CNT100    ;
   97:L P[97] 100mm/sec CNT100    ;
   98:L P[98] 100mm/sec CNT100    ;
   99:L P[99] 100mm/sec CNT100    ;
   100:L P[100] 100mm/sec CNT100    ;
   101:L P[101] 100mm/sec CNT100    ;
   102:L P[102] 100mm/sec CNT100    ;
   103:L P[103] 100mm/sec CNT100    ;
   104:L P[104] 100mm/sec CNT100    ;
   105:L P[105] 100mm/sec CNT100    ;
   106:L P[106] 100mm/sec CNT100    ;
   107:L P[107] 100mm/sec CNT100    ;
   108:L P[108] 100mm/sec CNT100    ;
   109:L P[109] 100mm/sec CNT100    ;
   110:L P[110] 100mm/sec CNT100    ;
   111:L P[111] 100mm/sec CNT100    ;
   112:L P[112] 100mm/sec CNT100    ;
   113:L P[113] 100mm/sec CNT100    ;
   114:L P[114] 100mm/sec CNT100    ;
   115:L P[115] 100mm/sec CNT100    ;
   116:L P[116] 100mm/sec CNT100    ;
   117:L P[117] 100mm/sec CNT100    ;
   118:L P[118] 100mm/sec CNT100    ;
   119:L P[119] 100mm/sec CNT100    ;
   120:L P[120] 100mm/sec CNT100    ;
   121:L P[121] 100mm/sec CNT100    ;
   122:L P[122] 100mm/sec CNT100    ;
   123:L P[123] 100mm/sec CNT100    ;
   124:L P[124] 100mm/sec CNT100    ;
   125:L P[125] 100mm/sec CNT100    ;
   126:L P[126] 100mm/sec CNT100    ;
   127:L P[127] 100mm/sec CNT100    ;
   128:L P[128] 100mm/sec CNT100    ;
   129:L P[129] 100mm/sec CNT100    ;
   130:L P[130] 100mm/sec CNT100    ;
   131:L P[131] 100mm/sec CNT100    ;
   132:L P[132] 100mm/sec CNT100    ;
   133:L P[133] 100mm/sec CNT100    ;
   134:L P[134] 100mm/sec CNT100    ;
   135:L P[135] 100mm/sec CNT100    ;
   136:L P[136] 100mm/sec CNT100    ;
   137:L P[137] 100mm/sec CNT100    ;
   138:L P[138] 100mm/sec CNT100    ;
   139:L P[139] 100mm/sec CNT100    ;
   140:L P[140] 100mm/sec CNT100    ;
   141:L P[141] 100mm/sec CNT100    ;
   142:L P[142] 100mm/sec CNT100    ;
   143:L P[143] 100mm/sec CNT100    ;
   144:L P[144] 100mm/sec CNT100    ;
   145:L P[145] 100mm/sec CNT100    ;
   146:L P[146] 100mm/sec CNT100    ;
   147:L P[147] 100mm/sec CNT100    ;
   148:L P[148] 100mm/sec CNT100    ;
   149:L P[149] 100mm/sec CNT100    ;
   150:L P[150] 100mm/sec CNT100    ;
   151:L P[151] 100mm/sec CNT100    ;
   152:L P[152] 100mm/sec CNT100    ;
   153:L P[153] 100mm/sec CNT100    ;
   154:L P[154] 100mm/sec CNT100    ;
   155:L P[155] 100mm/sec CNT100    ;
   156:L P[156] 100mm/sec CNT100    ;
   157:L P[157] 100mm/sec CNT100    ;
   158:L P[158] 100mm/sec CNT100    ;
   159:L P[159] 100mm/sec CNT100    ;
   160:L P[160] 100mm/sec CNT100    ;
   161:L P[161] 100mm/sec CNT100    ;
   162:L P[162] 100mm/sec CNT100    ;
   163:L P[163] 100mm/sec CNT100    ;
   164:L P[164] 100mm/sec CNT100    ;
   165:L P[165] 100mm/sec CNT100    ;
   166:L P[166] 100mm/sec CNT100    ;
   167:L P[167] 100mm/sec CNT100    ;
   168:L P[168] 100mm/sec CNT100    ;
   169:L P[169] 100mm/sec CNT100    ;
   170:L P[170] 100mm/sec CNT100    ;
   171:L P[171] 100mm/sec CNT100    ;
   172:L P[172] 100mm/sec CNT100    ;
   173:L P[173] 100mm/sec CNT100    ;
   174:L P[174] 100mm/sec CNT100    ;
   175:L P[175] 100mm/sec CNT100    ;
   176:L P[176] 100mm/sec CNT100    ;
   177:L P[177] 100mm/sec CNT100    ;
   178:L P[178] 100mm/sec CNT100    ;
   179:L P[179] 100mm/sec CNT100    ;
   180:L P[180] 100mm/sec CNT100    ;
   181:L P[181] 100mm/sec CNT100    ;
   182:L P[182] 100mm/sec CNT100    ;
   183:L P[183] 100mm/sec CNT100    ;
   184:L P[184] 100mm/sec CNT100    ;
   185:L P[185] 100mm/sec CNT100    ;
   186:L P[186] 100mm/sec CNT100    ;
   187:L P[187] 100mm/sec CNT100    ;
   188:L P[188] 100mm/sec CNT100    ;
   189:L P[189] 100mm/sec CNT100    ;
   190:L P[190] 100mm/sec CNT100    ;
   191:L P[191] 100mm/sec CNT100    ;
   192:L P[192] 100mm/sec CNT100    ;
   193:L P[193] 100mm/sec CNT100    ;
   194:L P[194] 100mm/sec CNT100    ;
   195:L P[195] 100mm/sec CNT100    ;
   196:L P[196] 100mm/sec CNT100    ;
   197:L P[197] 100mm/sec CNT100    ;
   198:L P[198] 100mm/sec CNT100    ;
   199:L P[199] 100mm/sec CNT100    ;
   200:L P[200] 100mm/sec CNT100    ;
   201:L P[201] 100mm/sec CNT100    ;
   202:L P[202] 100mm/sec CNT100    ;
   203:L P[203] 100mm/sec CNT100    ;
   204:L P[204] 100mm/sec CNT100    ;
   205:L P[205] 100mm/sec CNT100    ;
   206:L P[206] 100mm/sec CNT100    ;
   207:L P[207] 100mm/sec CNT100    ;
   208:L P[208] 100mm/sec CNT100    ;
   209:L P[209] 100mm/sec CNT100    ;
   210:L P[210] 100mm/sec CNT100    ;
   211:L P[211] 100mm/sec CNT100    ;
   212:L P[212] 100mm/sec CNT100    ;
   213:L P[213] 100mm/sec CNT100    ;
   214:L P[214] 100mm/sec CNT100    ;
   215:L P[215] 100mm/sec CNT100    ;
   216:L P[216] 100mm/sec CNT100    ;
   217:L P[217] 100mm/sec CNT100    ;
   218:L P[218] 100mm/sec CNT100    ;
   219:L P[219] 100mm/sec CNT100    ;
   220:L P[220] 100mm/sec CNT100    ;
   221:L P[221] 100mm/sec CNT100    ;
   222:L P[222] 100mm/sec CNT100    ;
   223:L P[223] 100mm/sec CNT100    ;
   224:L P[224] 100mm/sec CNT100    ;
   225:L P[225] 100mm/sec CNT100    ;
   226:L P[226] 100mm/sec CNT100    ;
   227:L P[227] 100mm/sec CNT100    ;
   228:L P[228] 100mm/sec CNT100    ;
   229:L P[229] 100mm/sec CNT100    ;
   230:L P[230] 100mm/sec CNT100    ;
   231:L P[231] 100mm/sec CNT100    ;
   232:L P[232] 100mm/sec CNT100    ;
   233:L P[233] 100mm/sec CNT100    ;
   234:L P[234] 100mm/sec CNT100    ;
   235:L P[235] 100mm/sec CNT100    ;
   236:L P[236] 100mm/sec CNT100    ;
   237:L P[237] 100mm/sec CNT100    ;
   238:L P[238] 100mm/sec CNT100    ;
   239:L P[239] 100mm/sec CNT100    ;
   240:L P[240] 100mm/sec CNT100    ;
   241:L P[241] 100mm/sec CNT100    ;
   242:L P[242] 100mm/sec CNT100    ;
   243:L P[243] 100mm/sec CNT100    ;
   244:L P[244] 100mm/sec CNT100    ;
   245:L P[245] 100mm/sec CNT100    ;
   246:L P[246] 100mm/sec CNT100    ;
   247:L P[247] 100mm/sec CNT100    ;
   248:L P[248] 100mm/sec CNT100    ;
   249:L P[249] 100mm/sec CNT100    ;
   250:L P[250] 100mm/sec CNT100    ;
   251:L P[251] 100mm/sec CNT100    ;
   252:L P[252] 100mm/sec CNT100    ;
   253:L P[253] 100mm/sec CNT100    ;
   254:L P[254] 100mm/sec CNT100    ;
   255:L P[255] 100mm/sec CNT100    ;
   256:L P[256] 100mm/sec CNT100    ;
   257:L P[257] 100mm/sec CNT100    ;
   258:L P[258] 100mm/sec CNT100    ;
   259:L P[259] 100mm/sec CNT100    ;
   260:L P[260] 100mm/sec CNT100    ;
   261:L P[261] 100mm/sec CNT100    ;
   262:L P[262] 100mm/sec CNT100    ;
   263:L P[263] 100mm/sec CNT100    ;
   264:L P[264] 100mm/sec CNT100    ;
   265:L P[265] 100mm/sec CNT100    ;
   266:L P[266] 100mm/sec CNT100    ;
   267:L P[267] 100mm/sec CNT100    ;
   268:L P[268] 100mm/sec CNT100    ;
   269:L P[269] 100mm/sec CNT100    ;
   270:L P[270] 100mm/sec CNT100    ;
   271:L P[271] 100mm/sec CNT100    ;
   272:L P[272] 100mm/sec CNT100    ;
   273:L P[273] 100mm/sec CNT100    ;
   274:L P[274] 100mm/sec CNT100    ;
   275:L P[275] 100mm/sec CNT100    ;
   276:L P[276] 100mm/sec CNT100    ;
   277:L P[277] 100mm/sec CNT100    ;
   278:L P[278] 100mm/sec CNT100    ;
   279:L P[279] 100mm/sec CNT100    ;
   280:L P[280] 100mm/sec CNT100    ;
   281:L P[281] 100mm/sec CNT100    ;
   282:L P[282] 100mm/sec CNT100    ;
   283:L P[283] 100mm/sec CNT100    ;
   284:L P[284] 100mm/sec CNT100    ;
   285:L P[285] 100mm/sec CNT100    ;
   286:L P[286] 100mm/sec CNT100    ;
   287:L P[287] 100mm/sec CNT100    ;
   288:L P[288] 100mm/sec CNT100    ;
   289:L P[289] 100mm/sec CNT100    ;
   290:L P[290] 100mm/sec CNT100    ;
   291:L P[291] 100mm/sec CNT100    ;
   292:L P[292] 100mm/sec CNT100    ;
   293:L P[293] 100mm/sec CNT100    ;
   294:L P[294] 100mm/sec CNT100    ;
   295:L P[295] 100mm/sec CNT100    ;
   296:L P[296] 100mm/sec CNT100    ;
   297:L P[297] 100mm/sec CNT100    ;
   298:L P[298] 100mm/sec CNT100    ;
   299:L P[299] 100mm/sec CNT100    ;
   300:L P[300] 100mm/sec CNT100    ;
   301:L P[301] 100mm/sec CNT100    ;
   302:L P[302] 100mm/sec CNT100    ;
   303:L P[303] 100mm/sec CNT100    ;
   304:L P[304] 100mm/sec CNT100    ;
   305:L P[305] 100mm/sec CNT100    ;
   306:L P[306] 100mm/sec CNT100    ;
   307:L P[307] 100mm/sec CNT100    ;
   308:L P[308] 100mm/sec CNT100    ;
   309:L P[309] 100mm/sec CNT100    ;
   310:L P[310] 100mm/sec CNT100    ;
   311:L P[311] 100mm/sec CNT100    ;
   312:L P[312] 100mm/sec CNT100    ;
   313:L P[313] 100mm/sec CNT100    ;
   314:L P[314] 100mm/sec CNT100    ;
   315:L P[315] 100mm/sec CNT100    ;
   316:L P[316] 100mm/sec CNT100    ;
   317:L P[317] 100mm/sec CNT100    ;
   318:L P[318] 100mm/sec CNT100    ;
   319:L P[319] 100mm/sec CNT100    ;
   320:L P[320] 100mm/sec CNT100    ;
   321:L P[321] 100mm/sec CNT100    ;
   322:L P[322] 100mm/sec CNT100    ;
   323:L P[323] 100mm/sec CNT100    ;
   324:L P[324] 100mm/sec CNT100    ;
   325:L P[325] 100mm/sec CNT100    ;
   326:L P[326] 100mm/sec CNT100    ;
   327:L P[327] 100mm/sec CNT100    ;
   328:L P[328] 100mm/sec CNT100    ;
   329:L P[329] 100mm/sec CNT100    ;
   330:L P[330] 100mm/sec CNT100    ;
   331:L P[331] 100mm/sec CNT100    ;
   332:L P[332] 100mm/sec CNT100    ;
   333:L P[333] 100mm/sec CNT100    ;
   334:L P[334] 100mm/sec CNT100    ;
   335:L P[335] 100mm/sec CNT100    ;
   336:L P[336] 100mm/sec CNT100    ;
   337:L P[337] 100mm/sec CNT100    ;
   338:L P[338] 100mm/sec CNT100    ;
   339:L P[339] 100mm/sec CNT100    ;
   340:L P[340] 100mm/sec CNT100    ;
   341:L P[341] 100mm/sec CNT100    ;
   342:L P[342] 100mm/sec CNT100    ;
   343:L P[343] 100mm/sec CNT100    ;
   344:L P[344] 100mm/sec CNT100    ;
   345:L P[345] 100mm/sec CNT100    ;
   346:L P[346] 100mm/sec CNT100    ;
   347:L P[347] 100mm/sec CNT100    ;
   348:L P[348] 100mm/sec CNT100    ;
   349:L P[349] 100mm/sec CNT100    ;
   350:L P[350] 100mm/sec CNT100    ;
   351:L P[351] 100mm/sec CNT100    ;
   352:L P[352] 100mm/sec CNT100    ;
   353:L P[353] 100mm/sec CNT100    ;
   354:L P[354] 100mm/sec CNT100    ;
   355:L P[355] 100mm/sec CNT100    ;
   356:L P[356] 100mm/sec CNT100    ;
   357:L P[357] 100mm/sec CNT100    ;
   358:L P[358] 100mm/sec CNT100    ;
   359:L P[359] 100mm/sec CNT100    ;
   360:L P[360] 100mm/sec CNT100    ;
   361:L P[361] 100mm/sec CNT100    ;
   362:L P[362] 100mm/sec CNT100    ;
   363:L P[363] 100mm/sec CNT100    ;
   364:L P[364] 100mm/sec CNT100    ;
   365:L P[365] 100mm/sec CNT100    ;
   366:L P[366] 100mm/sec CNT100    ;
   367:L P[367] 100mm/sec CNT100    ;
   368:L P[368] 100mm/sec CNT100    ;
   369:L P[369] 100mm/sec CNT100    ;
   370:L P[370] 100mm/sec CNT100    ;
   371:L P[371] 100mm/sec CNT100    ;
   372:L P[372] 100mm/sec CNT100    ;
   373:L P[373] 100mm/sec CNT100    ;
   374:L P[374] 100mm/sec CNT100    ;
   375:L P[375] 100mm/sec CNT100    ;
   376:L P[376] 100mm/sec CNT100    ;
   377:L P[377] 100mm/sec CNT100    ;
   378:L P[378] 100mm/sec CNT100    ;
   379:L P[379] 100mm/sec CNT100    ;
   380:L P[380] 100mm/sec CNT100    ;
   381:L P[381] 100mm/sec CNT100    ;
   382:L P[382] 100mm/sec CNT100    ;
   383:L P[383] 100mm/sec CNT100    ;
   384:L P[384] 100mm/sec CNT100    ;
   385:L P[385] 100mm/sec CNT100    ;
   386:L P[386] 100mm/sec CNT100    ;
   387:L P[387] 100mm/sec CNT100    ;
   388:L P[388] 100mm/sec CNT100    ;
   389:L P[389] 100mm/sec CNT100    ;
   390:L P[390] 100mm/sec CNT100    ;
   391:L P[391] 100mm/sec CNT100    ;
   392:L P[392] 100mm/sec CNT100    ;
   393:L P[393] 100mm/sec CNT100    ;
   394:L P[394] 100mm/sec CNT100    ;
   395:L P[395] 100mm/sec CNT100    ;
   396:L P[396] 100mm/sec CNT100    ;
   397:L P[397] 100mm/sec CNT100    ;
   398:L P[398] 100mm/sec CNT100    ;
   399:L P[399] 100mm/sec CNT100    ;
   400:L P[400] 100mm/sec CNT100    ;
   401:L P[401] 100mm/sec CNT100    ;
   402:L P[402] 100mm/sec CNT100    ;
   403:L P[403] 100mm/sec CNT100    ;
   404:L P[404] 100mm/sec CNT100    ;
   405:L P[405] 100mm/sec CNT100    ;
   406:L P[406] 100mm/sec CNT100    ;
   407:L P[407] 100mm/sec CNT100    ;
   408:L P[408] 100mm/sec CNT100    ;
   409:L P[409] 100mm/sec CNT100    ;
   410:L P[410] 100mm/sec CNT100    ;
   411:L P[411] 100mm/sec CNT100    ;
   412:L P[412] 100mm/sec CNT100    ;
   413:L P[413] 100mm/sec CNT100    ;
   414:L P[414] 100mm/sec CNT100    ;
   415:L P[415] 100mm/sec CNT100    ;
   416:L P[416] 100mm/sec CNT100    ;
   417:L P[417] 100mm/sec CNT100    ;
   418:L P[418] 100mm/sec CNT100    ;
   419:L P[419] 100mm/sec CNT100    ;
   420:L P[420] 100mm/sec CNT100    ;
   421:L P[421] 100mm/sec CNT100    ;
   422:L P[422] 100mm/sec CNT100    ;
   423:L P[423] 100mm/sec CNT100    ;
   424:L P[424] 100mm/sec CNT100    ;
   425:L P[425] 100mm/sec CNT100    ;
   426:L P[426] 100mm/sec CNT100    ;
   427:L P[427] 100mm/sec CNT100    ;
   428:L P[428] 100mm/sec CNT100    ;
   429:L P[429] 100mm/sec CNT100    ;
   430:L P[430] 100mm/sec CNT100    ;
   431:L P[431] 100mm/sec CNT100    ;
/POS
P[1]{
   GP1:
    UF : 0, UT : 6,      CONFIG : 'N U T, 0, 0, 0',
    X =  420.246  mm,    Y =   0.000  mm,    Z =   53.417  mm,
    W =  -180.000 deg,    P =   0.000 deg,    R =   0.000 deg
};
P[2]{
   GP1:
    UF : 0, UT : 6,      CONFIG : 'N U T, 0, 0, 0',
    X =  463.912  mm,    Y =   -218.012  mm,    Z =   -219.970  mm,
    W =  -180.000 deg,    P =   0.000 deg,    R =   0.000 deg
};
P[3]{
   GP1:
    UF : 0, UT : 6,      CONFIG : 'N U T, 0, 0, 0',
    X =  465.709  mm,    Y =   -118.220  mm,    Z =   -209.970  mm,
    W =  -170.000 deg,    P =   0.000 deg,    R =   0.000 deg
};
P[4]{
   GP1:
    UF : 0, UT : 6,      CONFIG : 'N U T, 0, 0, 0',
    X =  464.822  mm,    Y =   -114.461  mm,    Z =   -208.684  mm,
    W =  -170.000 deg,    P =   0.000 deg,    R =   0.000 deg
};
P[5]{
   GP1:
    UF : 0, UT : 6,      CONFIG : 'N U T, 0, 0, 0',
    X =  464.796  mm,    Y =   -110.309  mm,    Z =   -207.969  mm,
    W =  -170.000 deg,    P =   0.000 deg,    R =   0.000 deg
};
P[6]{
   GP1:
    UF : 0, UT : 6,      CONFIG : 'N U T, 0, 0, 0',
    X =  464.823  mm,    Y =   -107.868  mm,    Z =   -205.898  mm,
    W =  -170.000 deg,    P =   0.000 deg,    R =   0.000 deg
};
P[7]{
   GP1:
    UF : 0, UT : 6,      CONFIG : 'N U T, 0, 0, 0',
    X =  464.939  mm,    Y =   -104.589  mm,    Z =   -204.918  mm,
    W =  -170.000 deg,    P =   0.000 deg,    R =   0.000 deg
};
P[8]{
   GP1:
    UF : 0, UT : 6,      CONFIG : 'N U T, 0, 0, 0',
    X =  464.952  mm,    Y =   -99.398  mm,    Z =   -203.287  mm,
    W =  -170.000 deg,    P =   0.000 deg,    R =   0.000 deg
};
P[9]{
   GP1:
    UF : 0, UT : 6,      CONFIG : 'N U T, 0, 0, 0',
    X =  464.894  mm,    Y =   -95.959  mm,    Z =   -202.680  mm,
    W =  -170.000 deg,    P =   0.000 deg,    R =   0.000 deg
};
P[10]{
   GP1:
    UF : 0, UT : 6,      CONFIG : 'N U T, 0, 0, 0',
    X =  464.906  mm,    Y =   -93.354  mm,    Z =   -201.315  mm,
    W =  -170.000 deg,    P =   0.000 deg,    R =   0.000 deg
};
P[11]{
   GP1:
    UF : 0, UT : 6,      CONFIG : 'N U T, 0, 0, 0',
    X =  464.785  mm,    Y =   -89.368  mm,    Z =   -200.875  mm,
    W =  -170.000 deg,    P =   0.000 deg,    R =   0.000 deg
};
P[12]{
   GP1:
    UF : 0, UT : 6,      CONFIG : 'N U T, 0, 0, 0',
    X =  464.209  mm,    Y =   -84.477  mm,    Z =   -200.007  mm,
    W =  -170.000 deg,    P =   0.000 deg,    R =   0.000 deg
};
P[13]{
   GP1:
    UF : 0, UT : 6,      CONFIG : 'N U T, 0, 0, 0',
    X =  463.954  mm,    Y =   -79.687  mm,    Z =   -199.195  mm,
    W =  -170.000 deg,    P =   0.000 deg,    R =   0.000 deg
};
P[14]{
   GP1:
    UF : 0, UT : 6,      CONFIG : 'N U T, 0, 0, 0',
    X =  464.047  mm,    Y =   -74.800  mm,    Z =   -198.141  mm,
    W =  -170.000 deg,    P =   0.000 deg,    R =   0.000 deg
};
P[15]{
   GP1:
    UF : 0, UT : 6,      CONFIG : 'N U T, 0, 0, 0',
    X =  464.448  mm,    Y =   -70.865  mm,    Z =   -197.332  mm,
    W =  -170.000 deg,    P =   0.000 deg,    R =   0.000 deg
};
P[16]{
   GP1:
    UF : 0, UT : 6,      CONFIG : 'N U T, 0, 0, 0',
    X =  463.956  mm,    Y =   -68.082  mm,    Z =   -196.401  mm,
    W =  -170.000 deg,    P =   0.000 deg,    R =   0.000 deg
};
P[17]{
   GP1:
    UF : 0, UT : 6,      CONFIG : 'N U T, 0, 0, 0',
    X =  464.030  mm,    Y =   -64.343  mm,    Z =   -195.961  mm,
    W =  -170.767 deg,    P =   0.000 deg,    R =   0.000 deg
};
P[18]{
   GP1:
    UF : 0, UT : 6,      CONFIG : 'N U T, 0, 0, 0',
    X =  463.974  mm,    Y =   -59.255  mm,    Z =   -195.260  mm,
    W =  -171.553 deg,    P =   0.000 deg,    R =   0.000 deg
};
P[19]{
   GP1:
    UF : 0, UT : 6,      CONFIG : 'N U T, 0, 0, 0',
    X =  464.013  mm,    Y =   -54.120  mm,    Z =   -194.584  mm,
    W =  -170.885 deg,    P =   0.000 deg,    R =   0.000 deg
};
P[20]{
   GP1:
    UF : 0, UT : 6,      CONFIG : 'N U T, 0, 0, 0',
    X =  463.966  mm,    Y =   -49.160  mm,    Z =   -193.795  mm,
    W =  -170.000 deg,    P =   0.000 deg,    R =   0.000 deg
};
P[21]{
   GP1:
    UF : 0, UT : 6,      CONFIG : 'N U T, 0, 0, 0',
    X =  464.240  mm,    Y =   -45.701  mm,    Z =   -193.434  mm,
    W =  -170.000 deg,    P =   0.000 deg,    R =   0.000 deg
};
P[22]{
   GP1:
    UF : 0, UT : 6,      CONFIG : 'N U T, 0, 0, 0',
    X =  463.950  mm,    Y =   -43.134  mm,    Z =   -192.015  mm,
    W =  -170.000 deg,    P =   0.000 deg,    R =   0.000 deg
};
P[23]{
   GP1:
    UF : 0, UT : 6,      CONFIG : 'N U T, 0, 0, 0',
    X =  464.157  mm,    Y =   -39.235  mm,    Z =   -191.003  mm,
    W =  -170.000 deg,    P =   0.000 deg,    R =   0.000 deg
};
P[24]{
   GP1:
    UF : 0, UT : 6,      CONFIG : 'N U T, 0, 0, 0',
    X =  464.196  mm,    Y =   -34.182  mm,    Z =   -189.285  mm,
    W =  -170.000 deg,    P =   0.000 deg,    R =   0.000 deg
};
P[25]{
   GP1:
    UF : 0, UT : 6,      CONFIG : 'N U T, 0, 0, 0',
    X =  464.196  mm,    Y =   -29.187  mm,    Z =   -187.938  mm,
    W =  -170.000 deg,    P =   0.000 deg,    R =   0.000 deg
};
P[26]{
   GP1:
    UF : 0, UT : 6,      CONFIG : 'N U T, 0, 0, 0',
    X =  464.215  mm,    Y =   -25.825  mm,    Z =   -187.492  mm,
    W =  -170.000 deg,    P =   0.000 deg,    R =   0.000 deg
};
P[27]{
   GP1:
    UF : 0, UT : 6,      CONFIG : 'N U T, 0, 0, 0',
    X =  464.222  mm,    Y =   -23.470  mm,    Z =   -186.428  mm,
    W =  -170.000 deg,    P =   0.000 deg,    R =   0.000 deg
};
P[28]{
   GP1:
    UF : 0, UT : 6,      CONFIG : 'N U T, 0, 0, 0',
    X =  464.218  mm,    Y =   -19.767  mm,    Z =   -186.173  mm,
    W =  -170.000 deg,    P =   0.000 deg,    R =   0.000 deg
};
P[29]{
   GP1:
    UF : 0, UT : 6,      CONFIG : 'N U T, 0, 0, 0',
    X =  464.218  mm,    Y =   -14.655  mm,    Z =   -185.147  mm,
    W =  -170.000 deg,    P =   0.000 deg,    R =   0.000 deg
};
P[30]{
   GP1:
    UF : 0, UT : 6,      CONFIG : 'N U T, 0, 0, 0',
    X =  464.257  mm,    Y =   -9.422  mm,    Z =   -183.280  mm,
    W =  -170.000 deg,    P =   0.000 deg,    R =   0.000 deg
};
P[31]{
   GP1:
    UF : 0, UT : 6,      CONFIG : 'N U T, 0, 0, 0',
    X =  464.115  mm,    Y =   -5.587  mm,    Z =   -182.464  mm,
    W =  -170.000 deg,    P =   0.000 deg,    R =   0.000 deg
};
P[32]{
   GP1:
    UF : 0, UT : 6,      CONFIG : 'N U T, 0, 0, 0',
    X =  463.834  mm,    Y =   -3.328  mm,    Z =   -180.872  mm,
    W =  -170.000 deg,    P =   0.000 deg,    R =   0.000 deg
};
P[33]{
   GP1:
    UF : 0, UT : 6,      CONFIG : 'N U T, 0, 0, 0',
    X =  463.853  mm,    Y =   0.380  mm,    Z =   -180.404  mm,
    W =  -170.000 deg,    P =   0.000 deg,    R =   0.000 deg
};
P[34]{
   GP1:
    UF : 0, UT : 6,      CONFIG : 'N U T, 0, 0, 0',
    X =  463.855  mm,    Y =   5.432  mm,    Z =   -179.073  mm,
    W =  -170.000 deg,    P =   0.000 deg,    R =   0.000 deg
};
P[35]{
   GP1:
    UF : 0, UT : 6,      CONFIG : 'N U T, 0, 0, 0',
    X =  463.855  mm,    Y =   10.477  mm,    Z =   -178.161  mm,
    W =  -170.000 deg,    P =   0.000 deg,    R =   0.000 deg
};
P[36]{
   GP1:
    UF : 0, UT : 6,      CONFIG : 'N U T, 0, 0, 0',
    X =  463.855  mm,    Y =   14.146  mm,    Z =   -177.826  mm,
    W =  -170.000 deg,    P =   0.000 deg,    R =   0.000 deg
};
P[37]{
   GP1:
    UF : 0, UT : 6,      CONFIG : 'N U T, 0, 0, 0',
    X =  463.857  mm,    Y =   16.438  mm,    Z =   -176.746  mm,
    W =  -170.000 deg,    P =   0.000 deg,    R =   0.000 deg
};
P[38]{
   GP1:
    UF : 0, UT : 6,      CONFIG : 'N U T, 0, 0, 0',
    X =  463.894  mm,    Y =   20.526  mm,    Z =   -175.585  mm,
    W =  -170.000 deg,    P =   0.000 deg,    R =   0.000 deg
};
P[39]{
   GP1:
    UF : 0, UT : 6,      CONFIG : 'N U T, 0, 0, 0',
    X =  463.941  mm,    Y =   25.470  mm,    Z =   -173.441  mm,
    W =  -170.000 deg,    P =   0.000 deg,    R =   0.000 deg
};
P[40]{
   GP1:
    UF : 0, UT : 6,      CONFIG : 'N U T, 0, 0, 0',
    X =  463.969  mm,    Y =   29.041  mm,    Z =   -172.785  mm,
    W =  -170.000 deg,    P =   0.000 deg,    R =   0.000 deg
};
P[41]{
   GP1:
    UF : 0, UT : 6,      CONFIG : 'N U T, 0, 0, 0',
    X =  463.985  mm,    Y =   31.711  mm,    Z =   -171.202  mm,
    W =  -170.000 deg,    P =   0.000 deg,    R =   0.000 deg
};
P[42]{
   GP1:
    UF : 0, UT : 6,      CONFIG : 'N U T, 0, 0, 0',
    X =  464.013  mm,    Y =   35.683  mm,    Z =   -170.655  mm,
    W =  -170.000 deg,    P =   0.000 deg,    R =   0.000 deg
};
P[43]{
   GP1:
    UF : 0, UT : 6,      CONFIG : 'N U T, 0, 0, 0',
    X =  464.038  mm,    Y =   40.529  mm,    Z =   -169.761  mm,
    W =  -170.585 deg,    P =   0.000 deg,    R =   0.000 deg
};
P[44]{
   GP1:
    UF : 0, UT : 6,      CONFIG : 'N U T, 0, 0, 0',
    X =  464.052  mm,    Y =   45.400  mm,    Z =   -168.944  mm,
    W =  -170.000 deg,    P =   0.000 deg,    R =   0.000 deg
};
P[45]{
   GP1:
    UF : 0, UT : 6,      CONFIG : 'N U T, 0, 0, 0',
    X =  464.071  mm,    Y =   49.331  mm,    Z =   -168.359  mm,
    W =  -170.000 deg,    P =   0.000 deg,    R =   0.000 deg
};
P[46]{
   GP1:
    UF : 0, UT : 6,      CONFIG : 'N U T, 0, 0, 0',
    X =  464.085  mm,    Y =   51.937  mm,    Z =   -166.352  mm,
    W =  -170.000 deg,    P =   0.000 deg,    R =   0.000 deg
};
P[47]{
   GP1:
    UF : 0, UT : 6,      CONFIG : 'N U T, 0, 0, 0',
    X =  464.116  mm,    Y =   55.759  mm,    Z =   -165.372  mm,
    W =  -170.000 deg,    P =   0.000 deg,    R =   0.000 deg
};
P[48]{
   GP1:
    UF : 0, UT : 6,      CONFIG : 'N U T, 0, 0, 0',
    X =  464.055  mm,    Y =   60.671  mm,    Z =   -163.854  mm,
    W =  -170.000 deg,    P =   0.000 deg,    R =   0.000 deg
};
P[49]{
   GP1:
    UF : 0, UT : 6,      CONFIG : 'N U T, 0, 0, 0',
    X =  464.173  mm,    Y =   65.538  mm,    Z =   -162.827  mm,
    W =  -170.000 deg,    P =   0.000 deg,    R =   0.000 deg
};
P[50]{
   GP1:
    UF : 0, UT : 6,      CONFIG : 'N U T, 0, 0, 0',
    X =  464.456  mm,    Y =   69.092  mm,    Z =   -162.502  mm,
    W =  -170.758 deg,    P =   0.000 deg,    R =   0.000 deg
};
P[51]{
   GP1:
    UF : 0, UT : 6,      CONFIG : 'N U T, 0, 0, 0',
    X =  464.201  mm,    Y =   71.478  mm,    Z =   -161.848  mm,
    W =  -170.522 deg,    P =   0.000 deg,    R =   0.000 deg
};
P[52]{
   GP1:
    UF : 0, UT : 6,      CONFIG : 'N U T, 0, 0, 0',
    X =  464.207  mm,    Y =   75.363  mm,    Z =   -161.419  mm,
    W =  -170.000 deg,    P =   0.000 deg,    R =   0.000 deg
};
P[53]{
   GP1:
    UF : 0, UT : 6,      CONFIG : 'N U T, 0, 0, 0',
    X =  464.242  mm,    Y =   80.286  mm,    Z =   -160.369  mm,
    W =  -170.000 deg,    P =   0.000 deg,    R =   0.000 deg
};
P[54]{
   GP1:
    UF : 0, UT : 6,      CONFIG : 'N U T, 0, 0, 0',
    X =  464.283  mm,    Y =   85.113  mm,    Z =   -159.147  mm,
    W =  -170.000 deg,    P =   0.000 deg,    R =   0.000 deg
};
P[55]{
   GP1:
    UF : 0, UT : 6,      CONFIG : 'N U T, 0, 0, 0',
    X =  464.299  mm,    Y =   90.137  mm,    Z =   -157.991  mm,
    W =  -170.999 deg,    P =   0.000 deg,    R =   0.000 deg
};
P[56]{
   GP1:
    UF : 0, UT : 6,      CONFIG : 'N U T, 0, 0, 0',
    X =  464.426  mm,    Y =   93.947  mm,    Z =   -157.436  mm,
    W =  -172.470 deg,    P =   0.000 deg,    R =   0.000 deg
};
P[57]{
   GP1:
    UF : 0, UT : 6,      CONFIG : 'N U T, 0, 0, 0',
    X =  464.178  mm,    Y =   96.592  mm,    Z =   -157.202  mm,
    W =  -176.985 deg,    P =   0.000 deg,    R =   0.000 deg
};
P[58]{
   GP1:
    UF : 0, UT : 6,      CONFIG : 'N U T, 0, 0, 0',
    X =  464.178  mm,    Y =   100.396  mm,    Z =   -157.195  mm,
    W =  -177.149 deg,    P =   0.000 deg,    R =   0.000 deg
};
P[59]{
   GP1:
    UF : 0, UT : 6,      CONFIG : 'N U T, 0, 0, 0',
    X =  464.370  mm,    Y =   105.600  mm,    Z =   -157.069  mm,
    W =  -176.238 deg,    P =   0.000 deg,    R =   0.000 deg
};
P[60]{
   GP1:
    UF : 0, UT : 6,      CONFIG : 'N U T, 0, 0, 0',
    X =  464.307  mm,    Y =   110.768  mm,    Z =   -156.571  mm,
    W =  -175.612 deg,    P =   0.000 deg,    R =   0.000 deg
};
P[61]{
   GP1:
    UF : 0, UT : 6,      CONFIG : 'N U T, 0, 0, 0',
    X =  464.294  mm,    Y =   115.699  mm,    Z =   -155.983  mm,
    W =  -176.590 deg,    P =   0.000 deg,    R =   0.000 deg
};
P[62]{
   GP1:
    UF : 0, UT : 6,      CONFIG : 'N U T, 0, 0, 0',
    X =  464.399  mm,    Y =   120.441  mm,    Z =   -155.875  mm,
    W =  -178.225 deg,    P =   0.000 deg,    R =   0.000 deg
};
P[63]{
   GP1:
    UF : 0, UT : 6,      CONFIG : 'N U T, 0, 0, 0',
    X =  464.213  mm,    Y =   125.484  mm,    Z =   -155.867  mm,
    W =  -180.055 deg,    P =   0.000 deg,    R =   0.000 deg
};
P[64]{
   GP1:
    UF : 0, UT : 6,      CONFIG : 'N U T, 0, 0, 0',
    X =  464.391  mm,    Y =   130.486  mm,    Z =   -155.898  mm,
    W =  -180.724 deg,    P =   0.000 deg,    R =   0.000 deg
};
P[65]{
   GP1:
    UF : 0, UT : 6,      CONFIG : 'N U T, 0, 0, 0',
    X =  465.928  mm,    Y =   134.587  mm,    Z =   -156.014  mm,
    W =  -181.143 deg,    P =   0.000 deg,    R =   0.000 deg
};
P[66]{
   GP1:
    UF : 0, UT : 6,      CONFIG : 'N U T, 0, 0, 0',
    X =  463.912  mm,    Y =   209.351  mm,    Z =   -166.014  mm,
    W =  -180.000 deg,    P =   0.000 deg,    R =   0.000 deg
};
P[67]{
   GP1:
    UF : 0, UT : 6,      CONFIG : 'N U T, 0, 0, 0',
    X =  487.379  mm,    Y =   209.351  mm,    Z =   -166.014  mm,
    W =  -180.000 deg,    P =   0.000 deg,    R =   0.000 deg
};
P[68]{
   GP1:
    UF : 0, UT : 6,      CONFIG : 'N U T, 0, 0, 0',
    X =  489.396  mm,    Y =   134.587  mm,    Z =   -156.014  mm,
    W =  -181.143 deg,    P =   0.000 deg,    R =   0.000 deg
};
P[69]{
   GP1:
    UF : 0, UT : 6,      CONFIG : 'N U T, 0, 0, 0',
    X =  487.859  mm,    Y =   130.486  mm,    Z =   -155.898  mm,
    W =  -180.724 deg,    P =   0.000 deg,    R =   0.000 deg
};
P[70]{
   GP1:
    UF : 0, UT : 6,      CONFIG : 'N U T, 0, 0, 0',
    X =  487.680  mm,    Y =   125.484  mm,    Z =   -155.867  mm,
    W =  -180.055 deg,    P =   0.000 deg,    R =   0.000 deg
};
P[71]{
   GP1:
    UF : 0, UT : 6,      CONFIG : 'N U T, 0, 0, 0',
    X =  487.866  mm,    Y =   120.441  mm,    Z =   -155.875  mm,
    W =  -178.225 deg,    P =   0.000 deg,    R =   0.000 deg
};
P[72]{
   GP1:
    UF : 0, UT : 6,      CONFIG : 'N U T, 0, 0, 0',
    X =  487.761  mm,    Y =   115.699  mm,    Z =   -155.983  mm,
    W =  -176.590 deg,    P =   0.000 deg,    R =   0.000 deg
};
P[73]{
   GP1:
    UF : 0, UT : 6,      CONFIG : 'N U T, 0, 0, 0',
    X =  487.775  mm,    Y =   110.768  mm,    Z =   -156.571  mm,
    W =  -175.612 deg,    P =   0.000 deg,    R =   0.000 deg
};
P[74]{
   GP1:
    UF : 0, UT : 6,      CONFIG : 'N U T, 0, 0, 0',
    X =  487.837  mm,    Y =   105.600  mm,    Z =   -157.069  mm,
    W =  -176.238 deg,    P =   0.000 deg,    R =   0.000 deg
};
P[75]{
   GP1:
    UF : 0, UT : 6,      CONFIG : 'N U T, 0, 0, 0',
    X =  487.645  mm,    Y =   100.396  mm,    Z =   -157.195  mm,
    W =  -177.149 deg,    P =   0.000 deg,    R =   0.000 deg
};
P[76]{
   GP1:
    UF : 0, UT : 6,      CONFIG : 'N U T, 0, 0, 0',
    X =  487.645  mm,    Y =   96.592  mm,    Z =   -157.202  mm,
    W =  -176.985 deg,    P =   0.000 deg,    R =   0.000 deg
};
P[77]{
   GP1:
    UF : 0, UT : 6,      CONFIG : 'N U T, 0, 0, 0',
    X =  487.894  mm,    Y =   93.947  mm,    Z =   -157.436  mm,
    W =  -172.470 deg,    P =   0.000 deg,    R =   0.000 deg
};
P[78]{
   GP1:
    UF : 0, UT : 6,      CONFIG : 'N U T, 0, 0, 0',
    X =  487.766  mm,    Y =   90.137  mm,    Z =   -157.991  mm,
    W =  -170.999 deg,    P =   0.000 deg,    R =   0.000 deg
};
P[79]{
   GP1:
    UF : 0, UT : 6,      CONFIG : 'N U T, 0, 0, 0',
    X =  487.750  mm,    Y =   85.113  mm,    Z =   -159.147  mm,
    W =  -170.000 deg,    P =   0.000 deg,    R =   0.000 deg
};
P[80]{
   GP1:
    UF : 0, UT : 6,      CONFIG : 'N U T, 0, 0, 0',
    X =  487.710  mm,    Y =   80.286  mm,    Z =   -160.369  mm,
    W =  -170.000 deg,    P =   0.000 deg,    R =   0.000 deg
};
P[81]{
   GP1:
    UF : 0, UT : 6,      CONFIG : 'N U T, 0, 0, 0',
    X =  487.674  mm,    Y =   75.363  mm,    Z =   -161.419  mm,
    W =  -170.000 deg,    P =   0.000 deg,    R =   0.000 deg
};
P[82]{
   GP1:
    UF : 0, UT : 6,      CONFIG : 'N U T, 0, 0, 0',
    X =  487.668  mm,    Y =   71.478  mm,    Z =   -161.848  mm,
    W =  -170.522 deg,    P =   0.000 deg,    R =   0.000 deg
};
P[83]{
   GP1:
    UF : 0, UT : 6,      CONFIG : 'N U T, 0, 0, 0',
    X =  487.923  mm,    Y =   69.092  mm,    Z =   -162.502  mm,
    W =  -170.758 deg,    P =   0.000 deg,    R =   0.000 deg
};
P[84]{
   GP1:
    UF : 0, UT : 6,      CONFIG : 'N U T, 0, 0, 0',
    X =  487.640  mm,    Y =   65.538  mm,    Z =   -162.827  mm,
    W =  -170.000 deg,    P =   0.000 deg,    R =   0.000 deg
};
P[85]{
   GP1:
    UF : 0, UT : 6,      CONFIG : 'N U T, 0, 0, 0',
    X =  487.523  mm,    Y =   60.671  mm,    Z =   -163.854  mm,
    W =  -170.000 deg,    P =   0.000 deg,    R =   0.000 deg
};
P[86]{
   GP1:
    UF : 0, UT : 6,      CONFIG : 'N U T, 0, 0, 0',
    X =  487.583  mm,    Y =   55.759  mm,    Z =   -165.372  mm,
    W =  -170.000 deg,    P =   0.000 deg,    R =   0.000 deg
};
P[87]{
   GP1:
    UF : 0, UT : 6,      CONFIG : 'N U T, 0, 0, 0',
    X =  487.552  mm,    Y =   51.937  mm,    Z =   -166.352  mm,
    W =  -170.000 deg,    P =   0.000 deg,    R =   0.000 deg
};
P[88]{
   GP1:
    UF : 0, UT : 6,      CONFIG : 'N U T, 0, 0, 0',
    X =  487.538  mm,    Y =   49.331  mm,    Z =   -168.359  mm,
    W =  -170.000 deg,    P =   0.000 deg,    R =   0.000 deg
};
P[89]{
   GP1:
    UF : 0, UT : 6,      CONFIG : 'N U T, 0, 0, 0',
    X =  487.519  mm,    Y =   45.400  mm,    Z =   -168.944  mm,
    W =  -170.000 deg,    P =   0.000 deg,    R =   0.000 deg
};
P[90]{
   GP1:
    UF : 0, UT : 6,      CONFIG : 'N U T, 0, 0, 0',
    X =  487.505  mm,    Y =   40.529  mm,    Z =   -169.761  mm,
    W =  -170.585 deg,    P =   0.000 deg,    R =   0.000 deg
};
P[91]{
   GP1:
    UF : 0, UT : 6,      CONFIG : 'N U T, 0, 0, 0',
    X =  487.481  mm,    Y =   35.683  mm,    Z =   -170.655  mm,
    W =  -170.000 deg,    P =   0.000 deg,    R =   0.000 deg
};
P[92]{
   GP1:
    UF : 0, UT : 6,      CONFIG : 'N U T, 0, 0, 0',
    X =  487.452  mm,    Y =   31.711  mm,    Z =   -171.202  mm,
    W =  -170.000 deg,    P =   0.000 deg,    R =   0.000 deg
};
P[93]{
   GP1:
    UF : 0, UT : 6,      CONFIG : 'N U T, 0, 0, 0',
    X =  487.436  mm,    Y =   29.041  mm,    Z =   -172.785  mm,
    W =  -170.000 deg,    P =   0.000 deg,    R =   0.000 deg
};
P[94]{
   GP1:
    UF : 0, UT : 6,      CONFIG : 'N U T, 0, 0, 0',
    X =  487.409  mm,    Y =   25.470  mm,    Z =   -173.441  mm,
    W =  -170.000 deg,    P =   0.000 deg,    R =   0.000 deg
};
P[95]{
   GP1:
    UF : 0, UT : 6,      CONFIG : 'N U T, 0, 0, 0',
    X =  487.361  mm,    Y =   20.526  mm,    Z =   -175.585  mm,
    W =  -170.000 deg,    P =   0.000 deg,    R =   0.000 deg
};
P[96]{
   GP1:
    UF : 0, UT : 6,      CONFIG : 'N U T, 0, 0, 0',
    X =  487.325  mm,    Y =   16.438  mm,    Z =   -176.746  mm,
    W =  -170.000 deg,    P =   0.000 deg,    R =   0.000 deg
};
P[97]{
   GP1:
    UF : 0, UT : 6,      CONFIG : 'N U T, 0, 0, 0',
    X =  487.323  mm,    Y =   14.146  mm,    Z =   -177.826  mm,
    W =  -170.000 deg,    P =   0.000 deg,    R =   0.000 deg
};
P[98]{
   GP1:
    UF : 0, UT : 6,      CONFIG : 'N U T, 0, 0, 0',
    X =  487.323  mm,    Y =   10.477  mm,    Z =   -178.161  mm,
    W =  -170.000 deg,    P =   0.000 deg,    R =   0.000 deg
};
P[99]{
   GP1:
    UF : 0, UT : 6,      CONFIG : 'N U T, 0, 0, 0',
    X =  487.323  mm,    Y =   5.432  mm,    Z =   -179.073  mm,
    W =  -170.000 deg,    P =   0.000 deg,    R =   0.000 deg
};
P[100]{
   GP1:
    UF : 0, UT : 6,      CONFIG : 'N U T, 0, 0, 0',
    X =  487.320  mm,    Y =   0.380  mm,    Z =   -180.404  mm,
    W =  -170.000 deg,    P =   0.000 deg,    R =   0.000 deg
};
P[101]{
   GP1:
    UF : 0, UT : 6,      CONFIG : 'N U T, 0, 0, 0',
    X =  487.301  mm,    Y =   -3.328  mm,    Z =   -180.872  mm,
    W =  -170.000 deg,    P =   0.000 deg,    R =   0.000 deg
};
P[102]{
   GP1:
    UF : 0, UT : 6,      CONFIG : 'N U T, 0, 0, 0',
    X =  487.582  mm,    Y =   -5.587  mm,    Z =   -182.464  mm,
    W =  -170.000 deg,    P =   0.000 deg,    R =   0.000 deg
};
P[103]{
   GP1:
    UF : 0, UT : 6,      CONFIG : 'N U T, 0, 0, 0',
    X =  487.724  mm,    Y =   -9.422  mm,    Z =   -183.280  mm,
    W =  -170.000 deg,    P =   0.000 deg,    R =   0.000 deg
};
P[104]{
   GP1:
    UF : 0, UT : 6,      CONFIG : 'N U T, 0, 0, 0',
    X =  487.685  mm,    Y =   -14.655  mm,    Z =   -185.147  mm,
    W =  -170.000 deg,    P =   0.000 deg,    R =   0.000 deg
};
P[105]{
   GP1:
    UF : 0, UT : 6,      CONFIG : 'N U T, 0, 0, 0',
    X =  487.685  mm,    Y =   -19.767  mm,    Z =   -186.173  mm,
    W =  -170.000 deg,    P =   0.000 deg,    R =   0.000 deg
};
P[106]{
   GP1:
    UF : 0, UT : 6,      CONFIG : 'N U T, 0, 0, 0',
    X =  487.689  mm,    Y =   -23.470  mm,    Z =   -186.428  mm,
    W =  -170.000 deg,    P =   0.000 deg,    R =   0.000 deg
};
P[107]{
   GP1:
    UF : 0, UT : 6,      CONFIG : 'N U T, 0, 0, 0',
    X =  487.682  mm,    Y =   -25.825  mm,    Z =   -187.492  mm,
    W =  -170.000 deg,    P =   0.000 deg,    R =   0.000 deg
};
P[108]{
   GP1:
    UF : 0, UT : 6,      CONFIG : 'N U T, 0, 0, 0',
    X =  487.664  mm,    Y =   -29.187  mm,    Z =   -187.938  mm,
    W =  -170.000 deg,    P =   0.000 deg,    R =   0.000 deg
};
P[109]{
   GP1:
    UF : 0, UT : 6,      CONFIG : 'N U T, 0, 0, 0',
    X =  487.664  mm,    Y =   -34.182  mm,    Z =   -189.285  mm,
    W =  -170.000 deg,    P =   0.000 deg,    R =   0.000 deg
};
P[110]{
   GP1:
    UF : 0, UT : 6,      CONFIG : 'N U T, 0, 0, 0',
    X =  487.624  mm,    Y =   -39.235  mm,    Z =   -191.003  mm,
    W =  -170.000 deg,    P =   0.000 deg,    R =   0.000 deg
};
P[111]{
   GP1:
    UF : 0, UT : 6,      CONFIG : 'N U T, 0, 0, 0',
    X =  487.418  mm,    Y =   -43.134  mm,    Z =   -192.015  mm,
    W =  -170.000 deg,    P =   0.000 deg,    R =   0.000 deg
};
P[112]{
   GP1:
    UF : 0, UT : 6,      CONFIG : 'N U T, 0, 0, 0',
    X =  487.708  mm,    Y =   -45.701  mm,    Z =   -193.434  mm,
    W =  -170.000 deg,    P =   0.000 deg,    R =   0.000 deg
};
P[113]{
   GP1:
    UF : 0, UT : 6,      CONFIG : 'N U T, 0, 0, 0',
    X =  487.434  mm,    Y =   -49.160  mm,    Z =   -193.795  mm,
    W =  -170.000 deg,    P =   0.000 deg,    R =   0.000 deg
};
P[114]{
   GP1:
    UF : 0, UT : 6,      CONFIG : 'N U T, 0, 0, 0',
    X =  487.480  mm,    Y =   -54.120  mm,    Z =   -194.584  mm,
    W =  -170.885 deg,    P =   0.000 deg,    R =   0.000 deg
};
P[115]{
   GP1:
    UF : 0, UT : 6,      CONFIG : 'N U T, 0, 0, 0',
    X =  487.441  mm,    Y =   -59.255  mm,    Z =   -195.260  mm,
    W =  -171.553 deg,    P =   0.000 deg,    R =   0.000 deg
};
P[116]{
   GP1:
    UF : 0, UT : 6,      CONFIG : 'N U T, 0, 0, 0',
    X =  487.497  mm,    Y =   -64.343  mm,    Z =   -195.961  mm,
    W =  -170.767 deg,    P =   0.000 deg,    R =   0.000 deg
};
P[117]{
   GP1:
    UF : 0, UT : 6,      CONFIG : 'N U T, 0, 0, 0',
    X =  487.424  mm,    Y =   -68.082  mm,    Z =   -196.401  mm,
    W =  -170.000 deg,    P =   0.000 deg,    R =   0.000 deg
};
P[118]{
   GP1:
    UF : 0, UT : 6,      CONFIG : 'N U T, 0, 0, 0',
    X =  487.916  mm,    Y =   -70.865  mm,    Z =   -197.332  mm,
    W =  -170.000 deg,    P =   0.000 deg,    R =   0.000 deg
};
P[119]{
   GP1:
    UF : 0, UT : 6,      CONFIG : 'N U T, 0, 0, 0',
    X =  487.515  mm,    Y =   -74.800  mm,    Z =   -198.141  mm,
    W =  -170.000 deg,    P =   0.000 deg,    R =   0.000 deg
};
P[120]{
   GP1:
    UF : 0, UT : 6,      CONFIG : 'N U T, 0, 0, 0',
    X =  487.421  mm,    Y =   -79.687  mm,    Z =   -199.195  mm,
    W =  -170.000 deg,    P =   0.000 deg,    R =   0.000 deg
};
P[121]{
   GP1:
    UF : 0, UT : 6,      CONFIG : 'N U T, 0, 0, 0',
    X =  487.676  mm,    Y =   -84.477  mm,    Z =   -200.007  mm,
    W =  -170.000 deg,    P =   0.000 deg,    R =   0.000 deg
};
P[122]{
   GP1:
    UF : 0, UT : 6,      CONFIG : 'N U T, 0, 0, 0',
    X =  488.252  mm,    Y =   -89.368  mm,    Z =   -200.875  mm,
    W =  -170.000 deg,    P =   0.000 deg,    R =   0.000 deg
};
P[123]{
   GP1:
    UF : 0, UT : 6,      CONFIG : 'N U T, 0, 0, 0',
    X =  488.373  mm,    Y =   -93.354  mm,    Z =   -201.315  mm,
    W =  -170.000 deg,    P =   0.000 deg,    R =   0.000 deg
};
P[124]{
   GP1:
    UF : 0, UT : 6,      CONFIG : 'N U T, 0, 0, 0',
    X =  488.361  mm,    Y =   -95.959  mm,    Z =   -202.680  mm,
    W =  -170.000 deg,    P =   0.000 deg,    R =   0.000 deg
};
P[125]{
   GP1:
    UF : 0, UT : 6,      CONFIG : 'N U T, 0, 0, 0',
    X =  488.419  mm,    Y =   -99.398  mm,    Z =   -203.287  mm,
    W =  -170.000 deg,    P =   0.000 deg,    R =   0.000 deg
};
P[126]{
   GP1:
    UF : 0, UT : 6,      CONFIG : 'N U T, 0, 0, 0',
    X =  488.406  mm,    Y =   -104.589  mm,    Z =   -204.918  mm,
    W =  -170.000 deg,    P =   0.000 deg,    R =   0.000 deg
};
P[127]{
   GP1:
    UF : 0, UT : 6,      CONFIG : 'N U T, 0, 0, 0',
    X =  488.290  mm,    Y =   -107.868  mm,    Z =   -205.898  mm,
    W =  -170.000 deg,    P =   0.000 deg,    R =   0.000 deg
};
P[128]{
   GP1:
    UF : 0, UT : 6,      CONFIG : 'N U T, 0, 0, 0',
    X =  488.264  mm,    Y =   -110.309  mm,    Z =   -207.969  mm,
    W =  -170.000 deg,    P =   0.000 deg,    R =   0.000 deg
};
P[129]{
   GP1:
    UF : 0, UT : 6,      CONFIG : 'N U T, 0, 0, 0',
    X =  488.289  mm,    Y =   -114.461  mm,    Z =   -208.684  mm,
    W =  -170.000 deg,    P =   0.000 deg,    R =   0.000 deg
};
P[130]{
   GP1:
    UF : 0, UT : 6,      CONFIG : 'N U T, 0, 0, 0',
    X =  489.176  mm,    Y =   -118.220  mm,    Z =   -209.970  mm,
    W =  -170.000 deg,    P =   0.000 deg,    R =   0.000 deg
};
P[131]{
   GP1:
    UF : 0, UT : 6,      CONFIG : 'N U T, 0, 0, 0',
    X =  487.379  mm,    Y =   -218.012  mm,    Z =   -219.970  mm,
    W =  -180.000 deg,    P =   0.000 deg,    R =   0.000 deg
};
P[132]{
   GP1:
    UF : 0, UT : 6,      CONFIG : 'N U T, 0, 0, 0',
    X =  510.846  mm,    Y =   -218.012  mm,    Z =   -229.506  mm,
    W =  -180.000 deg,    P =   0.000 deg,    R =   0.000 deg
};
P[133]{
   GP1:
    UF : 0, UT : 6,      CONFIG : 'N U T, 0, 0, 0',
    X =  512.750  mm,    Y =   -153.723  mm,    Z =   -219.506  mm,
    W =  -170.000 deg,    P =   0.000 deg,    R =   0.000 deg
};
P[134]{
   GP1:
    UF : 0, UT : 6,      CONFIG : 'N U T, 0, 0, 0',
    X =  509.385  mm,    Y =   -152.179  mm,    Z =   -219.138  mm,
    W =  -170.000 deg,    P =   0.000 deg,    R =   0.000 deg
};
P[135]{
   GP1:
    UF : 0, UT : 6,      CONFIG : 'N U T, 0, 0, 0',
    X =  512.433  mm,    Y =   -150.569  mm,    Z =   -219.138  mm,
    W =  -170.000 deg,    P =   0.000 deg,    R =   0.000 deg
};
P[136]{
   GP1:
    UF : 0, UT : 6,      CONFIG : 'N U T, 0, 0, 0',
    X =  512.748  mm,    Y =   -148.076  mm,    Z =   -217.118  mm,
    W =  -170.000 deg,    P =   0.000 deg,    R =   0.000 deg
};
P[137]{
   GP1:
    UF : 0, UT : 6,      CONFIG : 'N U T, 0, 0, 0',
    X =  512.262  mm,    Y =   -144.458  mm,    Z =   -216.103  mm,
    W =  -170.000 deg,    P =   0.000 deg,    R =   0.000 deg
};
P[138]{
   GP1:
    UF : 0, UT : 6,      CONFIG : 'N U T, 0, 0, 0',
    X =  512.098  mm,    Y =   -139.643  mm,    Z =   -214.681  mm,
    W =  -170.000 deg,    P =   0.000 deg,    R =   0.000 deg
};
P[139]{
   GP1:
    UF : 0, UT : 6,      CONFIG : 'N U T, 0, 0, 0',
    X =  512.002  mm,    Y =   -134.779  mm,    Z =   -213.271  mm,
    W =  -170.000 deg,    P =   0.000 deg,    R =   0.000 deg
};
P[140]{
   GP1:
    UF : 0, UT : 6,      CONFIG : 'N U T, 0, 0, 0',
    X =  512.085  mm,    Y =   -130.872  mm,    Z =   -212.343  mm,
    W =  -170.000 deg,    P =   0.000 deg,    R =   0.000 deg
};
P[141]{
   GP1:
    UF : 0, UT : 6,      CONFIG : 'N U T, 0, 0, 0',
    X =  512.085  mm,    Y =   -128.379  mm,    Z =   -211.466  mm,
    W =  -170.000 deg,    P =   0.000 deg,    R =   0.000 deg
};
P[142]{
   GP1:
    UF : 0, UT : 6,      CONFIG : 'N U T, 0, 0, 0',
    X =  512.121  mm,    Y =   -124.673  mm,    Z =   -211.196  mm,
    W =  -170.000 deg,    P =   0.000 deg,    R =   0.000 deg
};
P[143]{
   GP1:
    UF : 0, UT : 6,      CONFIG : 'N U T, 0, 0, 0',
    X =  512.102  mm,    Y =   -119.523  mm,    Z =   -210.448  mm,
    W =  -170.000 deg,    P =   0.000 deg,    R =   0.000 deg
};
P[144]{
   GP1:
    UF : 0, UT : 6,      CONFIG : 'N U T, 0, 0, 0',
    X =  512.248  mm,    Y =   -114.364  mm,    Z =   -208.710  mm,
    W =  -170.000 deg,    P =   0.000 deg,    R =   0.000 deg
};
P[145]{
   GP1:
    UF : 0, UT : 6,      CONFIG : 'N U T, 0, 0, 0',
    X =  512.929  mm,    Y =   -110.360  mm,    Z =   -207.969  mm,
    W =  -170.000 deg,    P =   0.000 deg,    R =   0.000 deg
};
P[146]{
   GP1:
    UF : 0, UT : 6,      CONFIG : 'N U T, 0, 0, 0',
    X =  512.872  mm,    Y =   -108.002  mm,    Z =   -205.898  mm,
    W =  -170.000 deg,    P =   0.000 deg,    R =   0.000 deg
};
P[147]{
   GP1:
    UF : 0, UT : 6,      CONFIG : 'N U T, 0, 0, 0',
    X =  512.769  mm,    Y =   -104.365  mm,    Z =   -204.820  mm,
    W =  -170.000 deg,    P =   0.000 deg,    R =   0.000 deg
};
P[148]{
   GP1:
    UF : 0, UT : 6,      CONFIG : 'N U T, 0, 0, 0',
    X =  512.675  mm,    Y =   -99.353  mm,    Z =   -203.105  mm,
    W =  -170.000 deg,    P =   0.000 deg,    R =   0.000 deg
};
P[149]{
   GP1:
    UF : 0, UT : 6,      CONFIG : 'N U T, 0, 0, 0',
    X =  512.644  mm,    Y =   -95.743  mm,    Z =   -202.680  mm,
    W =  -170.000 deg,    P =   0.000 deg,    R =   0.000 deg
};
P[150]{
   GP1:
    UF : 0, UT : 6,      CONFIG : 'N U T, 0, 0, 0',
    X =  512.628  mm,    Y =   -93.217  mm,    Z =   -201.315  mm,
    W =  -170.000 deg,    P =   0.000 deg,    R =   0.000 deg
};
P[151]{
   GP1:
    UF : 0, UT : 6,      CONFIG : 'N U T, 0, 0, 0',
    X =  512.602  mm,    Y =   -89.179  mm,    Z =   -200.846  mm,
    W =  -170.000 deg,    P =   0.000 deg,    R =   0.000 deg
};
P[152]{
   GP1:
    UF : 0, UT : 6,      CONFIG : 'N U T, 0, 0, 0',
    X =  512.576  mm,    Y =   -84.180  mm,    Z =   -199.999  mm,
    W =  -170.000 deg,    P =   0.000 deg,    R =   0.000 deg
};
P[153]{
   GP1:
    UF : 0, UT : 6,      CONFIG : 'N U T, 0, 0, 0',
    X =  512.545  mm,    Y =   -79.166  mm,    Z =   -199.032  mm,
    W =  -170.000 deg,    P =   0.000 deg,    R =   0.000 deg
};
P[154]{
   GP1:
    UF : 0, UT : 6,      CONFIG : 'N U T, 0, 0, 0',
    X =  512.517  mm,    Y =   -74.188  mm,    Z =   -197.850  mm,
    W =  -170.000 deg,    P =   0.000 deg,    R =   0.000 deg
};
P[155]{
   GP1:
    UF : 0, UT : 6,      CONFIG : 'N U T, 0, 0, 0',
    X =  512.490  mm,    Y =   -70.676  mm,    Z =   -197.332  mm,
    W =  -170.000 deg,    P =   0.000 deg,    R =   0.000 deg
};
P[156]{
   GP1:
    UF : 0, UT : 6,      CONFIG : 'N U T, 0, 0, 0',
    X =  512.483  mm,    Y =   -68.229  mm,    Z =   -196.401  mm,
    W =  -170.000 deg,    P =   0.000 deg,    R =   0.000 deg
};
P[157]{
   GP1:
    UF : 0, UT : 6,      CONFIG : 'N U T, 0, 0, 0',
    X =  512.460  mm,    Y =   -64.271  mm,    Z =   -195.944  mm,
    W =  -171.116 deg,    P =   0.000 deg,    R =   0.000 deg
};
P[158]{
   GP1:
    UF : 0, UT : 6,      CONFIG : 'N U T, 0, 0, 0',
    X =  512.230  mm,    Y =   -59.323  mm,    Z =   -195.282  mm,
    W =  -172.152 deg,    P =   0.000 deg,    R =   0.000 deg
};
P[159]{
   GP1:
    UF : 0, UT : 6,      CONFIG : 'N U T, 0, 0, 0',
    X =  512.388  mm,    Y =   -54.365  mm,    Z =   -194.584  mm,
    W =  -171.959 deg,    P =   0.000 deg,    R =   0.000 deg
};
P[160]{
   GP1:
    UF : 0, UT : 6,      CONFIG : 'N U T, 0, 0, 0',
    X =  512.397  mm,    Y =   -49.605  mm,    Z =   -193.850  mm,
    W =  -170.000 deg,    P =   0.000 deg,    R =   0.000 deg
};
P[161]{
   GP1:
    UF : 0, UT : 6,      CONFIG : 'N U T, 0, 0, 0',
    X =  512.367  mm,    Y =   -45.663  mm,    Z =   -193.434  mm,
    W =  -170.000 deg,    P =   0.000 deg,    R =   0.000 deg
};
P[162]{
   GP1:
    UF : 0, UT : 6,      CONFIG : 'N U T, 0, 0, 0',
    X =  512.331  mm,    Y =   -43.152  mm,    Z =   -192.015  mm,
    W =  -170.000 deg,    P =   0.000 deg,    R =   0.000 deg
};
P[163]{
   GP1:
    UF : 0, UT : 6,      CONFIG : 'N U T, 0, 0, 0',
    X =  512.278  mm,    Y =   -39.646  mm,    Z =   -191.148  mm,
    W =  -170.000 deg,    P =   0.000 deg,    R =   0.000 deg
};
P[164]{
   GP1:
    UF : 0, UT : 6,      CONFIG : 'N U T, 0, 0, 0',
    X =  512.195  mm,    Y =   -34.648  mm,    Z =   -189.440  mm,
    W =  -170.000 deg,    P =   0.000 deg,    R =   0.000 deg
};
P[165]{
   GP1:
    UF : 0, UT : 6,      CONFIG : 'N U T, 0, 0, 0',
    X =  512.271  mm,    Y =   -29.622  mm,    Z =   -188.112  mm,
    W =  -170.000 deg,    P =   0.000 deg,    R =   0.000 deg
};
P[166]{
   GP1:
    UF : 0, UT : 6,      CONFIG : 'N U T, 0, 0, 0',
    X =  511.935  mm,    Y =   -25.872  mm,    Z =   -187.492  mm,
    W =  -170.000 deg,    P =   0.000 deg,    R =   0.000 deg
};
P[167]{
   GP1:
    UF : 0, UT : 6,      CONFIG : 'N U T, 0, 0, 0',
    X =  512.184  mm,    Y =   -23.246  mm,    Z =   -186.428  mm,
    W =  -170.000 deg,    P =   0.000 deg,    R =   0.000 deg
};
P[168]{
   GP1:
    UF : 0, UT : 6,      CONFIG : 'N U T, 0, 0, 0',
    X =  512.174  mm,    Y =   -19.438  mm,    Z =   -186.046  mm,
    W =  -170.000 deg,    P =   0.000 deg,    R =   0.000 deg
};
P[169]{
   GP1:
    UF : 0, UT : 6,      CONFIG : 'N U T, 0, 0, 0',
    X =  512.395  mm,    Y =   -14.471  mm,    Z =   -185.147  mm,
    W =  -170.000 deg,    P =   0.000 deg,    R =   0.000 deg
};
P[170]{
   GP1:
    UF : 0, UT : 6,      CONFIG : 'N U T, 0, 0, 0',
    X =  511.820  mm,    Y =   -9.837  mm,    Z =   -183.794  mm,
    W =  -170.000 deg,    P =   0.000 deg,    R =   0.000 deg
};
P[171]{
   GP1:
    UF : 0, UT : 6,      CONFIG : 'N U T, 0, 0, 0',
    X =  511.427  mm,    Y =   -5.868  mm,    Z =   -182.464  mm,
    W =  -170.000 deg,    P =   0.000 deg,    R =   0.000 deg
};
P[172]{
   GP1:
    UF : 0, UT : 6,      CONFIG : 'N U T, 0, 0, 0',
    X =  511.377  mm,    Y =   -3.025  mm,    Z =   -180.872  mm,
    W =  -170.000 deg,    P =   0.000 deg,    R =   0.000 deg
};
P[173]{
   GP1:
    UF : 0, UT : 6,      CONFIG : 'N U T, 0, 0, 0',
    X =  510.868  mm,    Y =   -0.664  mm,    Z =   -180.872  mm,
    W =  -170.000 deg,    P =   0.000 deg,    R =   0.000 deg
};
P[174]{
   GP1:
    UF : 0, UT : 6,      CONFIG : 'N U T, 0, 0, 0',
    X =  510.802  mm,    Y =   9.079  mm,    Z =   -178.497  mm,
    W =  -170.000 deg,    P =   0.000 deg,    R =   0.000 deg
};
P[175]{
   GP1:
    UF : 0, UT : 6,      CONFIG : 'N U T, 0, 0, 0',
    X =  511.355  mm,    Y =   17.116  mm,    Z =   -176.746  mm,
    W =  -170.000 deg,    P =   0.000 deg,    R =   0.000 deg
};
P[176]{
   GP1:
    UF : 0, UT : 6,      CONFIG : 'N U T, 0, 0, 0',
    X =  512.408  mm,    Y =   20.505  mm,    Z =   -175.585  mm,
    W =  -170.000 deg,    P =   0.000 deg,    R =   0.000 deg
};
P[177]{
   GP1:
    UF : 0, UT : 6,      CONFIG : 'N U T, 0, 0, 0',
    X =  512.327  mm,    Y =   25.454  mm,    Z =   -173.441  mm,
    W =  -170.000 deg,    P =   0.000 deg,    R =   0.000 deg
};
P[178]{
   GP1:
    UF : 0, UT : 6,      CONFIG : 'N U T, 0, 0, 0',
    X =  512.598  mm,    Y =   29.085  mm,    Z =   -172.785  mm,
    W =  -170.000 deg,    P =   0.000 deg,    R =   0.000 deg
};
P[179]{
   GP1:
    UF : 0, UT : 6,      CONFIG : 'N U T, 0, 0, 0',
    X =  512.702  mm,    Y =   31.711  mm,    Z =   -171.202  mm,
    W =  -170.000 deg,    P =   0.000 deg,    R =   0.000 deg
};
P[180]{
   GP1:
    UF : 0, UT : 6,      CONFIG : 'N U T, 0, 0, 0',
    X =  512.673  mm,    Y =   35.730  mm,    Z =   -170.655  mm,
    W =  -170.000 deg,    P =   0.000 deg,    R =   0.000 deg
};
P[181]{
   GP1:
    UF : 0, UT : 6,      CONFIG : 'N U T, 0, 0, 0',
    X =  512.651  mm,    Y =   40.650  mm,    Z =   -169.761  mm,
    W =  -170.588 deg,    P =   0.000 deg,    R =   0.000 deg
};
P[182]{
   GP1:
    UF : 0, UT : 6,      CONFIG : 'N U T, 0, 0, 0',
    X =  512.606  mm,    Y =   45.509  mm,    Z =   -168.944  mm,
    W =  -170.000 deg,    P =   0.000 deg,    R =   0.000 deg
};
P[183]{
   GP1:
    UF : 0, UT : 6,      CONFIG : 'N U T, 0, 0, 0',
    X =  512.513  mm,    Y =   49.354  mm,    Z =   -168.359  mm,
    W =  -170.000 deg,    P =   0.000 deg,    R =   0.000 deg
};
P[184]{
   GP1:
    UF : 0, UT : 6,      CONFIG : 'N U T, 0, 0, 0',
    X =  512.442  mm,    Y =   51.874  mm,    Z =   -166.352  mm,
    W =  -170.000 deg,    P =   0.000 deg,    R =   0.000 deg
};
P[185]{
   GP1:
    UF : 0, UT : 6,      CONFIG : 'N U T, 0, 0, 0',
    X =  512.355  mm,    Y =   55.656  mm,    Z =   -165.423  mm,
    W =  -170.000 deg,    P =   0.000 deg,    R =   0.000 deg
};
P[186]{
   GP1:
    UF : 0, UT : 6,      CONFIG : 'N U T, 0, 0, 0',
    X =  512.249  mm,    Y =   60.669  mm,    Z =   -163.854  mm,
    W =  -170.000 deg,    P =   0.000 deg,    R =   0.000 deg
};
P[187]{
   GP1:
    UF : 0, UT : 6,      CONFIG : 'N U T, 0, 0, 0',
    X =  512.307  mm,    Y =   65.678  mm,    Z =   -162.857  mm,
    W =  -170.000 deg,    P =   0.000 deg,    R =   0.000 deg
};
P[188]{
   GP1:
    UF : 0, UT : 6,      CONFIG : 'N U T, 0, 0, 0',
    X =  511.971  mm,    Y =   69.185  mm,    Z =   -162.502  mm,
    W =  -170.556 deg,    P =   0.000 deg,    R =   0.000 deg
};
P[189]{
   GP1:
    UF : 0, UT : 6,      CONFIG : 'N U T, 0, 0, 0',
    X =  512.219  mm,    Y =   71.554  mm,    Z =   -161.848  mm,
    W =  -170.463 deg,    P =   0.000 deg,    R =   0.000 deg
};
P[190]{
   GP1:
    UF : 0, UT : 6,      CONFIG : 'N U T, 0, 0, 0',
    X =  512.194  mm,    Y =   75.405  mm,    Z =   -161.419  mm,
    W =  -170.000 deg,    P =   0.000 deg,    R =   0.000 deg
};
P[191]{
   GP1:
    UF : 0, UT : 6,      CONFIG : 'N U T, 0, 0, 0',
    X =  512.592  mm,    Y =   80.505  mm,    Z =   -160.369  mm,
    W =  -170.000 deg,    P =   0.000 deg,    R =   0.000 deg
};
P[192]{
   GP1:
    UF : 0, UT : 6,      CONFIG : 'N U T, 0, 0, 0',
    X =  512.581  mm,    Y =   85.706  mm,    Z =   -159.147  mm,
    W =  -170.000 deg,    P =   0.000 deg,    R =   0.000 deg
};
P[193]{
   GP1:
    UF : 0, UT : 6,      CONFIG : 'N U T, 0, 0, 0',
    X =  512.549  mm,    Y =   90.806  mm,    Z =   -157.917  mm,
    W =  -171.441 deg,    P =   0.000 deg,    R =   0.000 deg
};
P[194]{
   GP1:
    UF : 0, UT : 6,      CONFIG : 'N U T, 0, 0, 0',
    X =  512.504  mm,    Y =   94.520  mm,    Z =   -157.436  mm,
    W =  -172.409 deg,    P =   0.000 deg,    R =   0.000 deg
};
P[195]{
   GP1:
    UF : 0, UT : 6,      CONFIG : 'N U T, 0, 0, 0',
    X =  512.474  mm,    Y =   96.980  mm,    Z =   -157.202  mm,
    W =  -177.176 deg,    P =   0.000 deg,    R =   0.000 deg
};
P[196]{
   GP1:
    UF : 0, UT : 6,      CONFIG : 'N U T, 0, 0, 0',
    X =  512.425  mm,    Y =   100.642  mm,    Z =   -157.194  mm,
    W =  -177.018 deg,    P =   0.000 deg,    R =   0.000 deg
};
P[197]{
   GP1:
    UF : 0, UT : 6,      CONFIG : 'N U T, 0, 0, 0',
    X =  512.425  mm,    Y =   105.835  mm,    Z =   -157.056  mm,
    W =  -176.169 deg,    P =   0.000 deg,    R =   0.000 deg
};
P[198]{
   GP1:
    UF : 0, UT : 6,      CONFIG : 'N U T, 0, 0, 0',
    X =  512.681  mm,    Y =   111.008  mm,    Z =   -156.438  mm,
    W =  -175.542 deg,    P =   0.000 deg,    R =   0.000 deg
};
P[199]{
   GP1:
    UF : 0, UT : 6,      CONFIG : 'N U T, 0, 0, 0',
    X =  512.764  mm,    Y =   115.409  mm,    Z =   -155.990  mm,
    W =  -176.492 deg,    P =   0.000 deg,    R =   0.000 deg
};
P[200]{
   GP1:
    UF : 0, UT : 6,      CONFIG : 'N U T, 0, 0, 0',
    X =  512.829  mm,    Y =   120.431  mm,    Z =   -155.868  mm,
    W =  -178.556 deg,    P =   0.000 deg,    R =   0.000 deg
};
P[201]{
   GP1:
    UF : 0, UT : 6,      CONFIG : 'N U T, 0, 0, 0',
    X =  512.688  mm,    Y =   125.462  mm,    Z =   -155.861  mm,
    W =  -180.051 deg,    P =   0.000 deg,    R =   0.000 deg
};
P[202]{
   GP1:
    UF : 0, UT : 6,      CONFIG : 'N U T, 0, 0, 0',
    X =  512.752  mm,    Y =   130.243  mm,    Z =   -155.899  mm,
    W =  -181.024 deg,    P =   0.000 deg,    R =   0.000 deg
};
P[203]{
   GP1:
    UF : 0, UT : 6,      CONFIG : 'N U T, 0, 0, 0',
    X =  512.745  mm,    Y =   135.355  mm,    Z =   -156.041  mm,
    W =  -181.624 deg,    P =   0.000 deg,    R =   0.000 deg
};
P[204]{
   GP1:
    UF : 0, UT : 6,      CONFIG : 'N U T, 0, 0, 0',
    X =  512.751  mm,    Y =   140.559  mm,    Z =   -156.227  mm,
    W =  -181.957 deg,    P =   0.000 deg,    R =   0.000 deg
};
P[205]{
   GP1:
    UF : 0, UT : 6,      CONFIG : 'N U T, 0, 0, 0',
    X =  512.355  mm,    Y =   145.306  mm,    Z =   -156.404  mm,
    W =  -182.007 deg,    P =   0.000 deg,    R =   0.000 deg
};
P[206]{
   GP1:
    UF : 0, UT : 6,      CONFIG : 'N U T, 0, 0, 0',
    X =  510.846  mm,    Y =   209.351  mm,    Z =   -166.404  mm,
    W =  -180.000 deg,    P =   0.000 deg,    R =   0.000 deg
};
P[207]{
   GP1:
    UF : 0, UT : 6,      CONFIG : 'N U T, 0, 0, 0',
    X =  534.314  mm,    Y =   209.351  mm,    Z =   -166.489  mm,
    W =  -180.000 deg,    P =   0.000 deg,    R =   0.000 deg
};
P[208]{
   GP1:
    UF : 0, UT : 6,      CONFIG : 'N U T, 0, 0, 0',
    X =  532.522  mm,    Y =   148.610  mm,    Z =   -156.489  mm,
    W =  -181.950 deg,    P =   0.000 deg,    R =   0.000 deg
};
P[209]{
   GP1:
    UF : 0, UT : 6,      CONFIG : 'N U T, 0, 0, 0',
    X =  532.542  mm,    Y =   145.349  mm,    Z =   -156.423  mm,
    W =  -181.985 deg,    P =   0.000 deg,    R =   0.000 deg
};
P[210]{
   GP1:
    UF : 0, UT : 6,      CONFIG : 'N U T, 0, 0, 0',
    X =  532.725  mm,    Y =   140.552  mm,    Z =   -156.242  mm,
    W =  -181.939 deg,    P =   0.000 deg,    R =   0.000 deg
};
P[211]{
   GP1:
    UF : 0, UT : 6,      CONFIG : 'N U T, 0, 0, 0',
    X =  532.651  mm,    Y =   135.754  mm,    Z =   -156.041  mm,
    W =  -181.686 deg,    P =   0.000 deg,    R =   0.000 deg
};
P[212]{
   GP1:
    UF : 0, UT : 6,      CONFIG : 'N U T, 0, 0, 0',
    X =  532.557  mm,    Y =   130.283  mm,    Z =   -155.899  mm,
    W =  -181.063 deg,    P =   0.000 deg,    R =   0.000 deg
};
P[213]{
   GP1:
    UF : 0, UT : 6,      CONFIG : 'N U T, 0, 0, 0',
    X =  532.541  mm,    Y =   125.501  mm,    Z =   -155.860  mm,
    W =  -180.114 deg,    P =   0.000 deg,    R =   0.000 deg
};
P[214]{
   GP1:
    UF : 0, UT : 6,      CONFIG : 'N U T, 0, 0, 0',
    X =  532.477  mm,    Y =   120.590  mm,    Z =   -155.873  mm,
    W =  -178.452 deg,    P =   0.000 deg,    R =   0.000 deg
};
P[215]{
   GP1:
    UF : 0, UT : 6,      CONFIG : 'N U T, 0, 0, 0',
    X =  532.546  mm,    Y =   115.621  mm,    Z =   -156.022  mm,
    W =  -176.503 deg,    P =   0.000 deg,    R =   0.000 deg
};
P[216]{
   GP1:
    UF : 0, UT : 6,      CONFIG : 'N U T, 0, 0, 0',
    X =  532.670  mm,    Y =   110.889  mm,    Z =   -156.453  mm,
    W =  -175.522 deg,    P =   0.000 deg,    R =   0.000 deg
};
P[217]{
   GP1:
    UF : 0, UT : 6,      CONFIG : 'N U T, 0, 0, 0',
    X =  532.332  mm,    Y =   105.648  mm,    Z =   -157.061  mm,
    W =  -176.509 deg,    P =   0.000 deg,    R =   0.000 deg
};
P[218]{
   GP1:
    UF : 0, UT : 6,      CONFIG : 'N U T, 0, 0, 0',
    X =  532.429  mm,    Y =   100.525  mm,    Z =   -157.194  mm,
    W =  -177.021 deg,    P =   0.000 deg,    R =   0.000 deg
};
P[219]{
   GP1:
    UF : 0, UT : 6,      CONFIG : 'N U T, 0, 0, 0',
    X =  532.510  mm,    Y =   96.701  mm,    Z =   -157.202  mm,
    W =  -176.964 deg,    P =   0.000 deg,    R =   0.000 deg
};
P[220]{
   GP1:
    UF : 0, UT : 6,      CONFIG : 'N U T, 0, 0, 0',
    X =  532.475  mm,    Y =   94.261  mm,    Z =   -157.436  mm,
    W =  -172.377 deg,    P =   0.000 deg,    R =   0.000 deg
};
P[221]{
   GP1:
    UF : 0, UT : 6,      CONFIG : 'N U T, 0, 0, 0',
    X =  532.596  mm,    Y =   90.616  mm,    Z =   -157.954  mm,
    W =  -171.406 deg,    P =   0.000 deg,    R =   0.000 deg
};
P[222]{
   GP1:
    UF : 0, UT : 6,      CONFIG : 'N U T, 0, 0, 0',
    X =  532.302  mm,    Y =   85.540  mm,    Z =   -159.166  mm,
    W =  -170.000 deg,    P =   0.000 deg,    R =   0.000 deg
};
P[223]{
   GP1:
    UF : 0, UT : 6,      CONFIG : 'N U T, 0, 0, 0',
    X =  532.249  mm,    Y =   80.499  mm,    Z =   -160.369  mm,
    W =  -170.000 deg,    P =   0.000 deg,    R =   0.000 deg
};
P[224]{
   GP1:
    UF : 0, UT : 6,      CONFIG : 'N U T, 0, 0, 0',
    X =  532.328  mm,    Y =   75.388  mm,    Z =   -161.418  mm,
    W =  -170.065 deg,    P =   0.000 deg,    R =   0.000 deg
};
P[225]{
   GP1:
    UF : 0, UT : 6,      CONFIG : 'N U T, 0, 0, 0',
    X =  532.433  mm,    Y =   71.612  mm,    Z =   -161.848  mm,
    W =  -170.563 deg,    P =   0.000 deg,    R =   0.000 deg
};
P[226]{
   GP1:
    UF : 0, UT : 6,      CONFIG : 'N U T, 0, 0, 0',
    X =  532.471  mm,    Y =   69.032  mm,    Z =   -162.502  mm,
    W =  -171.111 deg,    P =   0.000 deg,    R =   0.000 deg
};
P[227]{
   GP1:
    UF : 0, UT : 6,      CONFIG : 'N U T, 0, 0, 0',
    X =  532.583  mm,    Y =   65.232  mm,    Z =   -162.857  mm,
    W =  -170.000 deg,    P =   0.000 deg,    R =   0.000 deg
};
P[228]{
   GP1:
    UF : 0, UT : 6,      CONFIG : 'N U T, 0, 0, 0',
    X =  532.730  mm,    Y =   60.571  mm,    Z =   -163.725  mm,
    W =  -170.000 deg,    P =   0.000 deg,    R =   0.000 deg
};
P[229]{
   GP1:
    UF : 0, UT : 6,      CONFIG : 'N U T, 0, 0, 0',
    X =  532.731  mm,    Y =   55.839  mm,    Z =   -165.397  mm,
    W =  -170.000 deg,    P =   0.000 deg,    R =   0.000 deg
};
P[230]{
   GP1:
    UF : 0, UT : 6,      CONFIG : 'N U T, 0, 0, 0',
    X =  532.484  mm,    Y =   51.924  mm,    Z =   -166.352  mm,
    W =  -170.000 deg,    P =   0.000 deg,    R =   0.000 deg
};
P[231]{
   GP1:
    UF : 0, UT : 6,      CONFIG : 'N U T, 0, 0, 0',
    X =  532.593  mm,    Y =   49.360  mm,    Z =   -168.359  mm,
    W =  -170.000 deg,    P =   0.000 deg,    R =   0.000 deg
};
P[232]{
   GP1:
    UF : 0, UT : 6,      CONFIG : 'N U T, 0, 0, 0',
    X =  532.352  mm,    Y =   45.404  mm,    Z =   -168.961  mm,
    W =  -170.000 deg,    P =   0.000 deg,    R =   0.000 deg
};
P[233]{
   GP1:
    UF : 0, UT : 6,      CONFIG : 'N U T, 0, 0, 0',
    X =  532.354  mm,    Y =   40.590  mm,    Z =   -169.761  mm,
    W =  -170.591 deg,    P =   0.000 deg,    R =   0.000 deg
};
P[234]{
   GP1:
    UF : 0, UT : 6,      CONFIG : 'N U T, 0, 0, 0',
    X =  532.499  mm,    Y =   35.742  mm,    Z =   -170.655  mm,
    W =  -170.000 deg,    P =   0.000 deg,    R =   0.000 deg
};
P[235]{
   GP1:
    UF : 0, UT : 6,      CONFIG : 'N U T, 0, 0, 0',
    X =  532.400  mm,    Y =   31.838  mm,    Z =   -171.202  mm,
    W =  -170.000 deg,    P =   0.000 deg,    R =   0.000 deg
};
P[236]{
   GP1:
    UF : 0, UT : 6,      CONFIG : 'N U T, 0, 0, 0',
    X =  532.325  mm,    Y =   29.107  mm,    Z =   -172.785  mm,
    W =  -170.000 deg,    P =   0.000 deg,    R =   0.000 deg
};
P[237]{
   GP1:
    UF : 0, UT : 6,      CONFIG : 'N U T, 0, 0, 0',
    X =  532.428  mm,    Y =   25.510  mm,    Z =   -173.441  mm,
    W =  -170.000 deg,    P =   0.000 deg,    R =   0.000 deg
};
P[238]{
   GP1:
    UF : 0, UT : 6,      CONFIG : 'N U T, 0, 0, 0',
    X =  532.502  mm,    Y =   20.437  mm,    Z =   -175.658  mm,
    W =  -170.000 deg,    P =   0.000 deg,    R =   0.000 deg
};
P[239]{
   GP1:
    UF : 0, UT : 6,      CONFIG : 'N U T, 0, 0, 0',
    X =  532.483  mm,    Y =   16.459  mm,    Z =   -176.746  mm,
    W =  -170.000 deg,    P =   0.000 deg,    R =   0.000 deg
};
P[240]{
   GP1:
    UF : 0, UT : 6,      CONFIG : 'N U T, 0, 0, 0',
    X =  532.625  mm,    Y =   14.157  mm,    Z =   -177.826  mm,
    W =  -170.000 deg,    P =   0.000 deg,    R =   0.000 deg
};
P[241]{
   GP1:
    UF : 0, UT : 6,      CONFIG : 'N U T, 0, 0, 0',
    X =  532.751  mm,    Y =   10.478  mm,    Z =   -178.151  mm,
    W =  -170.000 deg,    P =   0.000 deg,    R =   0.000 deg
};
P[242]{
   GP1:
    UF : 0, UT : 6,      CONFIG : 'N U T, 0, 0, 0',
    X =  532.550  mm,    Y =   5.278  mm,    Z =   -179.360  mm,
    W =  -170.000 deg,    P =   0.000 deg,    R =   0.000 deg
};
P[243]{
   GP1:
    UF : 0, UT : 6,      CONFIG : 'N U T, 0, 0, 0',
    X =  532.612  mm,    Y =   0.579  mm,    Z =   -180.310  mm,
    W =  -170.000 deg,    P =   0.000 deg,    R =   0.000 deg
};
P[244]{
   GP1:
    UF : 0, UT : 6,      CONFIG : 'N U T, 0, 0, 0',
    X =  532.348  mm,    Y =   -3.254  mm,    Z =   -180.872  mm,
    W =  -170.000 deg,    P =   0.000 deg,    R =   0.000 deg
};
P[245]{
   GP1:
    UF : 0, UT : 6,      CONFIG : 'N U T, 0, 0, 0',
    X =  532.560  mm,    Y =   -5.861  mm,    Z =   -182.464  mm,
    W =  -170.000 deg,    P =   0.000 deg,    R =   0.000 deg
};
P[246]{
   GP1:
    UF : 0, UT : 6,      CONFIG : 'N U T, 0, 0, 0',
    X =  532.251  mm,    Y =   -9.618  mm,    Z =   -183.576  mm,
    W =  -170.000 deg,    P =   0.000 deg,    R =   0.000 deg
};
P[247]{
   GP1:
    UF : 0, UT : 6,      CONFIG : 'N U T, 0, 0, 0',
    X =  532.449  mm,    Y =   -14.643  mm,    Z =   -185.276  mm,
    W =  -170.000 deg,    P =   0.000 deg,    R =   0.000 deg
};
P[248]{
   GP1:
    UF : 0, UT : 6,      CONFIG : 'N U T, 0, 0, 0',
    X =  532.442  mm,    Y =   -19.361  mm,    Z =   -186.046  mm,
    W =  -170.000 deg,    P =   0.000 deg,    R =   0.000 deg
};
P[249]{
   GP1:
    UF : 0, UT : 6,      CONFIG : 'N U T, 0, 0, 0',
    X =  532.453  mm,    Y =   -23.152  mm,    Z =   -186.428  mm,
    W =  -170.000 deg,    P =   0.000 deg,    R =   0.000 deg
};
P[250]{
   GP1:
    UF : 0, UT : 6,      CONFIG : 'N U T, 0, 0, 0',
    X =  532.699  mm,    Y =   -25.879  mm,    Z =   -187.492  mm,
    W =  -170.000 deg,    P =   0.000 deg,    R =   0.000 deg
};
P[251]{
   GP1:
    UF : 0, UT : 6,      CONFIG : 'N U T, 0, 0, 0',
    X =  532.508  mm,    Y =   -29.640  mm,    Z =   -188.104  mm,
    W =  -170.000 deg,    P =   0.000 deg,    R =   0.000 deg
};
P[252]{
   GP1:
    UF : 0, UT : 6,      CONFIG : 'N U T, 0, 0, 0',
    X =  532.583  mm,    Y =   -34.666  mm,    Z =   -189.537  mm,
    W =  -170.000 deg,    P =   0.000 deg,    R =   0.000 deg
};
P[253]{
   GP1:
    UF : 0, UT : 6,      CONFIG : 'N U T, 0, 0, 0',
    X =  532.347  mm,    Y =   -39.737  mm,    Z =   -191.292  mm,
    W =  -170.000 deg,    P =   0.000 deg,    R =   0.000 deg
};
P[254]{
   GP1:
    UF : 0, UT : 6,      CONFIG : 'N U T, 0, 0, 0',
    X =  532.439  mm,    Y =   -43.213  mm,    Z =   -192.015  mm,
    W =  -170.000 deg,    P =   0.000 deg,    R =   0.000 deg
};
P[255]{
   GP1:
    UF : 0, UT : 6,      CONFIG : 'N U T, 0, 0, 0',
    X =  532.543  mm,    Y =   -45.769  mm,    Z =   -193.434  mm,
    W =  -170.000 deg,    P =   0.000 deg,    R =   0.000 deg
};
P[256]{
   GP1:
    UF : 0, UT : 6,      CONFIG : 'N U T, 0, 0, 0',
    X =  532.720  mm,    Y =   -49.784  mm,    Z =   -193.940  mm,
    W =  -170.000 deg,    P =   0.000 deg,    R =   0.000 deg
};
P[257]{
   GP1:
    UF : 0, UT : 6,      CONFIG : 'N U T, 0, 0, 0',
    X =  532.315  mm,    Y =   -54.404  mm,    Z =   -194.615  mm,
    W =  -172.057 deg,    P =   0.000 deg,    R =   0.000 deg
};
P[258]{
   GP1:
    UF : 0, UT : 6,      CONFIG : 'N U T, 0, 0, 0',
    X =  532.615  mm,    Y =   -59.305  mm,    Z =   -195.260  mm,
    W =  -172.299 deg,    P =   0.000 deg,    R =   0.000 deg
};
P[259]{
   GP1:
    UF : 0, UT : 6,      CONFIG : 'N U T, 0, 0, 0',
    X =  532.272  mm,    Y =   -64.472  mm,    Z =   -196.005  mm,
    W =  -171.011 deg,    P =   0.000 deg,    R =   0.000 deg
};
P[260]{
   GP1:
    UF : 0, UT : 6,      CONFIG : 'N U T, 0, 0, 0',
    X =  532.553  mm,    Y =   -68.248  mm,    Z =   -196.401  mm,
    W =  -170.000 deg,    P =   0.000 deg,    R =   0.000 deg
};
P[261]{
   GP1:
    UF : 0, UT : 6,      CONFIG : 'N U T, 0, 0, 0',
    X =  532.312  mm,    Y =   -70.807  mm,    Z =   -197.332  mm,
    W =  -170.000 deg,    P =   0.000 deg,    R =   0.000 deg
};
P[262]{
   GP1:
    UF : 0, UT : 6,      CONFIG : 'N U T, 0, 0, 0',
    X =  532.647  mm,    Y =   -74.653  mm,    Z =   -198.063  mm,
    W =  -170.000 deg,    P =   0.000 deg,    R =   0.000 deg
};
P[263]{
   GP1:
    UF : 0, UT : 6,      CONFIG : 'N U T, 0, 0, 0',
    X =  532.496  mm,    Y =   -79.301  mm,    Z =   -199.088  mm,
    W =  -170.000 deg,    P =   0.000 deg,    R =   0.000 deg
};
P[264]{
   GP1:
    UF : 0, UT : 6,      CONFIG : 'N U T, 0, 0, 0',
    X =  532.742  mm,    Y =   -84.253  mm,    Z =   -199.999  mm,
    W =  -170.000 deg,    P =   0.000 deg,    R =   0.000 deg
};
P[265]{
   GP1:
    UF : 0, UT : 6,      CONFIG : 'N U T, 0, 0, 0',
    X =  532.888  mm,    Y =   -89.597  mm,    Z =   -200.971  mm,
    W =  -170.000 deg,    P =   0.000 deg,    R =   0.000 deg
};
P[266]{
   GP1:
    UF : 0, UT : 6,      CONFIG : 'N U T, 0, 0, 0',
    X =  532.296  mm,    Y =   -93.400  mm,    Z =   -201.315  mm,
    W =  -170.000 deg,    P =   0.000 deg,    R =   0.000 deg
};
P[267]{
   GP1:
    UF : 0, UT : 6,      CONFIG : 'N U T, 0, 0, 0',
    X =  532.385  mm,    Y =   -108.472  mm,    Z =   -205.898  mm,
    W =  -170.000 deg,    P =   0.000 deg,    R =   0.000 deg
};
P[268]{
   GP1:
    UF : 0, UT : 6,      CONFIG : 'N U T, 0, 0, 0',
    X =  532.151  mm,    Y =   -110.810  mm,    Z =   -207.969  mm,
    W =  -170.000 deg,    P =   0.000 deg,    R =   0.000 deg
};
P[269]{
   GP1:
    UF : 0, UT : 6,      CONFIG : 'N U T, 0, 0, 0',
    X =  532.235  mm,    Y =   -114.602  mm,    Z =   -208.930  mm,
    W =  -170.000 deg,    P =   0.000 deg,    R =   0.000 deg
};
P[270]{
   GP1:
    UF : 0, UT : 6,      CONFIG : 'N U T, 0, 0, 0',
    X =  532.204  mm,    Y =   -119.799  mm,    Z =   -210.511  mm,
    W =  -170.000 deg,    P =   0.000 deg,    R =   0.000 deg
};
P[271]{
   GP1:
    UF : 0, UT : 6,      CONFIG : 'N U T, 0, 0, 0',
    X =  532.543  mm,    Y =   -124.529  mm,    Z =   -211.196  mm,
    W =  -170.000 deg,    P =   0.000 deg,    R =   0.000 deg
};
P[272]{
   GP1:
    UF : 0, UT : 6,      CONFIG : 'N U T, 0, 0, 0',
    X =  532.288  mm,    Y =   -128.163  mm,    Z =   -211.466  mm,
    W =  -170.044 deg,    P =   0.000 deg,    R =   0.000 deg
};
P[273]{
   GP1:
    UF : 0, UT : 6,      CONFIG : 'N U T, 0, 0, 0',
    X =  532.572  mm,    Y =   -130.632  mm,    Z =   -212.343  mm,
    W =  -170.000 deg,    P =   0.000 deg,    R =   0.000 deg
};
P[274]{
   GP1:
    UF : 0, UT : 6,      CONFIG : 'N U T, 0, 0, 0',
    X =  532.504  mm,    Y =   -134.487  mm,    Z =   -213.013  mm,
    W =  -170.000 deg,    P =   0.000 deg,    R =   0.000 deg
};
P[275]{
   GP1:
    UF : 0, UT : 6,      CONFIG : 'N U T, 0, 0, 0',
    X =  532.530  mm,    Y =   -139.632  mm,    Z =   -214.775  mm,
    W =  -170.000 deg,    P =   0.000 deg,    R =   0.000 deg
};
P[276]{
   GP1:
    UF : 0, UT : 6,      CONFIG : 'N U T, 0, 0, 0',
    X =  535.342  mm,    Y =   -142.934  mm,    Z =   -215.511  mm,
    W =  -170.000 deg,    P =   0.000 deg,    R =   0.000 deg
};
P[277]{
   GP1:
    UF : 0, UT : 6,      CONFIG : 'N U T, 0, 0, 0',
    X =  532.394  mm,    Y =   -144.516  mm,    Z =   -216.362  mm,
    W =  -170.000 deg,    P =   0.000 deg,    R =   0.000 deg
};
P[278]{
   GP1:
    UF : 0, UT : 6,      CONFIG : 'N U T, 0, 0, 0',
    X =  534.314  mm,    Y =   -218.012  mm,    Z =   -226.362  mm,
    W =  -180.000 deg,    P =   0.000 deg,    R =   0.000 deg
};
P[279]{
   GP1:
    UF : 0, UT : 6,      CONFIG : 'N U T, 0, 0, 0',
    X =  557.781  mm,    Y =   -218.012  mm,    Z =   -229.138  mm,
    W =  -180.000 deg,    P =   0.000 deg,    R =   0.000 deg
};
P[280]{
   GP1:
    UF : 0, UT : 6,      CONFIG : 'N U T, 0, 0, 0',
    X =  557.221  mm,    Y =   -153.507  mm,    Z =   -219.138  mm,
    W =  -170.000 deg,    P =   0.000 deg,    R =   0.000 deg
};
P[281]{
   GP1:
    UF : 0, UT : 6,      CONFIG : 'N U T, 0, 0, 0',
    X =  557.850  mm,    Y =   -151.244  mm,    Z =   -219.138  mm,
    W =  -170.000 deg,    P =   0.000 deg,    R =   0.000 deg
};
P[282]{
   GP1:
    UF : 0, UT : 6,      CONFIG : 'N U T, 0, 0, 0',
    X =  557.692  mm,    Y =   -148.780  mm,    Z =   -217.118  mm,
    W =  -170.000 deg,    P =   0.000 deg,    R =   0.000 deg
};
P[283]{
   GP1:
    UF : 0, UT : 6,      CONFIG : 'N U T, 0, 0, 0',
    X =  557.447  mm,    Y =   -145.085  mm,    Z =   -216.315  mm,
    W =  -170.000 deg,    P =   0.000 deg,    R =   0.000 deg
};
P[284]{
   GP1:
    UF : 0, UT : 6,      CONFIG : 'N U T, 0, 0, 0',
    X =  557.405  mm,    Y =   -139.582  mm,    Z =   -214.541  mm,
    W =  -170.000 deg,    P =   0.000 deg,    R =   0.000 deg
};
P[285]{
   GP1:
    UF : 0, UT : 6,      CONFIG : 'N U T, 0, 0, 0',
    X =  557.834  mm,    Y =   -134.403  mm,    Z =   -213.138  mm,
    W =  -170.000 deg,    P =   0.000 deg,    R =   0.000 deg
};
P[286]{
   GP1:
    UF : 0, UT : 6,      CONFIG : 'N U T, 0, 0, 0',
    X =  557.723  mm,    Y =   -131.110  mm,    Z =   -212.343  mm,
    W =  -170.000 deg,    P =   0.000 deg,    R =   0.000 deg
};
P[287]{
   GP1:
    UF : 0, UT : 6,      CONFIG : 'N U T, 0, 0, 0',
    X =  557.754  mm,    Y =   -128.404  mm,    Z =   -211.466  mm,
    W =  -170.009 deg,    P =   0.000 deg,    R =   0.000 deg
};
P[288]{
   GP1:
    UF : 0, UT : 6,      CONFIG : 'N U T, 0, 0, 0',
    X =  557.516  mm,    Y =   -124.597  mm,    Z =   -211.196  mm,
    W =  -170.000 deg,    P =   0.000 deg,    R =   0.000 deg
};
P[289]{
   GP1:
    UF : 0, UT : 6,      CONFIG : 'N U T, 0, 0, 0',
    X =  557.380  mm,    Y =   -119.874  mm,    Z =   -210.528  mm,
    W =  -170.000 deg,    P =   0.000 deg,    R =   0.000 deg
};
P[290]{
   GP1:
    UF : 0, UT : 6,      CONFIG : 'N U T, 0, 0, 0',
    X =  557.496  mm,    Y =   -114.759  mm,    Z =   -208.879  mm,
    W =  -170.000 deg,    P =   0.000 deg,    R =   0.000 deg
};
P[291]{
   GP1:
    UF : 0, UT : 6,      CONFIG : 'N U T, 0, 0, 0',
    X =  557.283  mm,    Y =   -110.557  mm,    Z =   -207.969  mm,
    W =  -170.000 deg,    P =   0.000 deg,    R =   0.000 deg
};
P[292]{
   GP1:
    UF : 0, UT : 6,      CONFIG : 'N U T, 0, 0, 0',
    X =  557.819  mm,    Y =   -108.148  mm,    Z =   -205.898  mm,
    W =  -170.000 deg,    P =   0.000 deg,    R =   0.000 deg
};
P[293]{
   GP1:
    UF : 0, UT : 6,      CONFIG : 'N U T, 0, 0, 0',
    X =  557.726  mm,    Y =   -104.424  mm,    Z =   -204.679  mm,
    W =  -170.000 deg,    P =   0.000 deg,    R =   0.000 deg
};
P[294]{
   GP1:
    UF : 0, UT : 6,      CONFIG : 'N U T, 0, 0, 0',
    X =  557.157  mm,    Y =   -99.462  mm,    Z =   -203.211  mm,
    W =  -170.000 deg,    P =   0.000 deg,    R =   0.000 deg
};
P[295]{
   GP1:
    UF : 0, UT : 6,      CONFIG : 'N U T, 0, 0, 0',
    X =  557.085  mm,    Y =   -95.915  mm,    Z =   -202.680  mm,
    W =  -170.000 deg,    P =   0.000 deg,    R =   0.000 deg
};
P[296]{
   GP1:
    UF : 0, UT : 6,      CONFIG : 'N U T, 0, 0, 0',
    X =  557.170  mm,    Y =   -93.227  mm,    Z =   -201.315  mm,
    W =  -170.000 deg,    P =   0.000 deg,    R =   0.000 deg
};
P[297]{
   GP1:
    UF : 0, UT : 6,      CONFIG : 'N U T, 0, 0, 0',
    X =  557.416  mm,    Y =   -89.263  mm,    Z =   -200.846  mm,
    W =  -170.000 deg,    P =   0.000 deg,    R =   0.000 deg
};
P[298]{
   GP1:
    UF : 0, UT : 6,      CONFIG : 'N U T, 0, 0, 0',
    X =  557.337  mm,    Y =   -84.558  mm,    Z =   -200.070  mm,
    W =  -170.131 deg,    P =   0.000 deg,    R =   0.000 deg
};
P[299]{
   GP1:
    UF : 0, UT : 6,      CONFIG : 'N U T, 0, 0, 0',
    X =  557.749  mm,    Y =   -79.841  mm,    Z =   -199.200  mm,
    W =  -170.000 deg,    P =   0.000 deg,    R =   0.000 deg
};
P[300]{
   GP1:
    UF : 0, UT : 6,      CONFIG : 'N U T, 0, 0, 0',
    X =  557.405  mm,    Y =   -74.823  mm,    Z =   -198.108  mm,
    W =  -170.000 deg,    P =   0.000 deg,    R =   0.000 deg
};
P[301]{
   GP1:
    UF : 0, UT : 6,      CONFIG : 'N U T, 0, 0, 0',
    X =  557.238  mm,    Y =   -70.707  mm,    Z =   -197.332  mm,
    W =  -170.000 deg,    P =   0.000 deg,    R =   0.000 deg
};
P[302]{
   GP1:
    UF : 0, UT : 6,      CONFIG : 'N U T, 0, 0, 0',
    X =  557.567  mm,    Y =   -68.079  mm,    Z =   -196.401  mm,
    W =  -170.000 deg,    P =   0.000 deg,    R =   0.000 deg
};
P[303]{
   GP1:
    UF : 0, UT : 6,      CONFIG : 'N U T, 0, 0, 0',
    X =  557.466  mm,    Y =   -64.567  mm,    Z =   -195.969  mm,
    W =  -170.859 deg,    P =   0.000 deg,    R =   0.000 deg
};
P[304]{
   GP1:
    UF : 0, UT : 6,      CONFIG : 'N U T, 0, 0, 0',
    X =  557.400  mm,    Y =   -59.655  mm,    Z =   -195.344  mm,
    W =  -172.031 deg,    P =   0.000 deg,    R =   0.000 deg
};
P[305]{
   GP1:
    UF : 0, UT : 6,      CONFIG : 'N U T, 0, 0, 0',
    X =  557.377  mm,    Y =   -54.803  mm,    Z =   -194.725  mm,
    W =  -171.994 deg,    P =   0.000 deg,    R =   0.000 deg
};
P[306]{
   GP1:
    UF : 0, UT : 6,      CONFIG : 'N U T, 0, 0, 0',
    X =  557.718  mm,    Y =   -49.972  mm,    Z =   -193.961  mm,
    W =  -170.000 deg,    P =   0.000 deg,    R =   0.000 deg
};
P[307]{
   GP1:
    UF : 0, UT : 6,      CONFIG : 'N U T, 0, 0, 0',
    X =  557.683  mm,    Y =   -46.008  mm,    Z =   -193.434  mm,
    W =  -170.000 deg,    P =   0.000 deg,    R =   0.000 deg
};
P[308]{
   GP1:
    UF : 0, UT : 6,      CONFIG : 'N U T, 0, 0, 0',
    X =  557.774  mm,    Y =   -43.141  mm,    Z =   -192.015  mm,
    W =  -170.000 deg,    P =   0.000 deg,    R =   0.000 deg
};
P[309]{
   GP1:
    UF : 0, UT : 6,      CONFIG : 'N U T, 0, 0, 0',
    X =  557.646  mm,    Y =   -39.180  mm,    Z =   -190.931  mm,
    W =  -170.000 deg,    P =   0.000 deg,    R =   0.000 deg
};
P[310]{
   GP1:
    UF : 0, UT : 6,      CONFIG : 'N U T, 0, 0, 0',
    X =  557.322  mm,    Y =   -34.128  mm,    Z =   -189.248  mm,
    W =  -170.000 deg,    P =   0.000 deg,    R =   0.000 deg
};
P[311]{
   GP1:
    UF : 0, UT : 6,      CONFIG : 'N U T, 0, 0, 0',
    X =  557.584  mm,    Y =   -29.614  mm,    Z =   -188.100  mm,
    W =  -170.000 deg,    P =   0.000 deg,    R =   0.000 deg
};
P[312]{
   GP1:
    UF : 0, UT : 6,      CONFIG : 'N U T, 0, 0, 0',
    X =  557.528  mm,    Y =   -26.004  mm,    Z =   -187.492  mm,
    W =  -170.000 deg,    P =   0.000 deg,    R =   0.000 deg
};
P[313]{
   GP1:
    UF : 0, UT : 6,      CONFIG : 'N U T, 0, 0, 0',
    X =  557.402  mm,    Y =   -23.095  mm,    Z =   -186.428  mm,
    W =  -170.000 deg,    P =   0.000 deg,    R =   0.000 deg
};
P[314]{
   GP1:
    UF : 0, UT : 6,      CONFIG : 'N U T, 0, 0, 0',
    X =  557.395  mm,    Y =   -19.316  mm,    Z =   -186.046  mm,
    W =  -170.000 deg,    P =   0.000 deg,    R =   0.000 deg
};
P[315]{
   GP1:
    UF : 0, UT : 6,      CONFIG : 'N U T, 0, 0, 0',
    X =  557.283  mm,    Y =   -14.798  mm,    Z =   -185.381  mm,
    W =  -170.000 deg,    P =   0.000 deg,    R =   0.000 deg
};
P[316]{
   GP1:
    UF : 0, UT : 6,      CONFIG : 'N U T, 0, 0, 0',
    X =  557.336  mm,    Y =   -9.681  mm,    Z =   -183.597  mm,
    W =  -170.000 deg,    P =   0.000 deg,    R =   0.000 deg
};
P[317]{
   GP1:
    UF : 0, UT : 6,      CONFIG : 'N U T, 0, 0, 0',
    X =  557.745  mm,    Y =   -5.928  mm,    Z =   -182.464  mm,
    W =  -170.000 deg,    P =   0.000 deg,    R =   0.000 deg
};
P[318]{
   GP1:
    UF : 0, UT : 6,      CONFIG : 'N U T, 0, 0, 0',
    X =  557.584  mm,    Y =   -3.082  mm,    Z =   -180.872  mm,
    W =  -170.000 deg,    P =   0.000 deg,    R =   0.000 deg
};
P[319]{
   GP1:
    UF : 0, UT : 6,      CONFIG : 'N U T, 0, 0, 0',
    X =  557.398  mm,    Y =   0.682  mm,    Z =   -180.310  mm,
    W =  -170.000 deg,    P =   0.000 deg,    R =   0.000 deg
};
P[320]{
   GP1:
    UF : 0, UT : 6,      CONFIG : 'N U T, 0, 0, 0',
    X =  557.377  mm,    Y =   5.468  mm,    Z =   -179.319  mm,
    W =  -170.000 deg,    P =   0.000 deg,    R =   0.000 deg
};
P[321]{
   GP1:
    UF : 0, UT : 6,      CONFIG : 'N U T, 0, 0, 0',
    X =  557.627  mm,    Y =   10.392  mm,    Z =   -178.172  mm,
    W =  -170.000 deg,    P =   0.000 deg,    R =   0.000 deg
};
P[322]{
   GP1:
    UF : 0, UT : 6,      CONFIG : 'N U T, 0, 0, 0',
    X =  557.494  mm,    Y =   14.146  mm,    Z =   -177.826  mm,
    W =  -170.000 deg,    P =   0.000 deg,    R =   0.000 deg
};
P[323]{
   GP1:
    UF : 0, UT : 6,      CONFIG : 'N U T, 0, 0, 0',
    X =  557.494  mm,    Y =   16.439  mm,    Z =   -176.746  mm,
    W =  -170.000 deg,    P =   0.000 deg,    R =   0.000 deg
};
P[324]{
   GP1:
    UF : 0, UT : 6,      CONFIG : 'N U T, 0, 0, 0',
    X =  557.452  mm,    Y =   20.622  mm,    Z =   -175.547  mm,
    W =  -170.000 deg,    P =   0.000 deg,    R =   0.000 deg
};
P[325]{
   GP1:
    UF : 0, UT : 6,      CONFIG : 'N U T, 0, 0, 0',
    X =  557.615  mm,    Y =   25.412  mm,    Z =   -173.487  mm,
    W =  -170.000 deg,    P =   0.000 deg,    R =   0.000 deg
};
P[326]{
   GP1:
    UF : 0, UT : 6,      CONFIG : 'N U T, 0, 0, 0',
    X =  557.567  mm,    Y =   29.063  mm,    Z =   -172.785  mm,
    W =  -170.000 deg,    P =   0.000 deg,    R =   0.000 deg
};
P[327]{
   GP1:
    UF : 0, UT : 6,      CONFIG : 'N U T, 0, 0, 0',
    X =  557.388  mm,    Y =   31.725  mm,    Z =   -171.202  mm,
    W =  -170.000 deg,    P =   0.000 deg,    R =   0.000 deg
};
P[328]{
   GP1:
    UF : 0, UT : 6,      CONFIG : 'N U T, 0, 0, 0',
    X =  557.568  mm,    Y =   35.841  mm,    Z =   -170.623  mm,
    W =  -170.000 deg,    P =   0.000 deg,    R =   0.000 deg
};
P[329]{
   GP1:
    UF : 0, UT : 6,      CONFIG : 'N U T, 0, 0, 0',
    X =  557.592  mm,    Y =   40.642  mm,    Z =   -169.761  mm,
    W =  -170.632 deg,    P =   0.000 deg,    R =   0.000 deg
};
P[330]{
   GP1:
    UF : 0, UT : 6,      CONFIG : 'N U T, 0, 0, 0',
    X =  557.591  mm,    Y =   45.584  mm,    Z =   -168.944  mm,
    W =  -170.000 deg,    P =   0.000 deg,    R =   0.000 deg
};
P[331]{
   GP1:
    UF : 0, UT : 6,      CONFIG : 'N U T, 0, 0, 0',
    X =  557.163  mm,    Y =   49.397  mm,    Z =   -168.359  mm,
    W =  -170.000 deg,    P =   0.000 deg,    R =   0.000 deg
};
P[332]{
   GP1:
    UF : 0, UT : 6,      CONFIG : 'N U T, 0, 0, 0',
    X =  557.793  mm,    Y =   51.861  mm,    Z =   -166.352  mm,
    W =  -170.000 deg,    P =   0.000 deg,    R =   0.000 deg
};
P[333]{
   GP1:
    UF : 0, UT : 6,      CONFIG : 'N U T, 0, 0, 0',
    X =  557.525  mm,    Y =   55.903  mm,    Z =   -165.096  mm,
    W =  -170.000 deg,    P =   0.000 deg,    R =   0.000 deg
};
P[334]{
   GP1:
    UF : 0, UT : 6,      CONFIG : 'N U T, 0, 0, 0',
    X =  557.298  mm,    Y =   60.409  mm,    Z =   -163.896  mm,
    W =  -170.000 deg,    P =   0.000 deg,    R =   0.000 deg
};
P[335]{
   GP1:
    UF : 0, UT : 6,      CONFIG : 'N U T, 0, 0, 0',
    X =  557.222  mm,    Y =   65.196  mm,    Z =   -162.857  mm,
    W =  -170.000 deg,    P =   0.000 deg,    R =   0.000 deg
};
P[336]{
   GP1:
    UF : 0, UT : 6,      CONFIG : 'N U T, 0, 0, 0',
    X =  557.489  mm,    Y =   69.005  mm,    Z =   -162.502  mm,
    W =  -170.796 deg,    P =   0.000 deg,    R =   0.000 deg
};
P[337]{
   GP1:
    UF : 0, UT : 6,      CONFIG : 'N U T, 0, 0, 0',
    X =  557.403  mm,    Y =   71.559  mm,    Z =   -161.848  mm,
    W =  -170.627 deg,    P =   0.000 deg,    R =   0.000 deg
};
P[338]{
   GP1:
    UF : 0, UT : 6,      CONFIG : 'N U T, 0, 0, 0',
    X =  557.754  mm,    Y =   75.472  mm,    Z =   -161.431  mm,
    W =  -170.000 deg,    P =   0.000 deg,    R =   0.000 deg
};
P[339]{
   GP1:
    UF : 0, UT : 6,      CONFIG : 'N U T, 0, 0, 0',
    X =  557.677  mm,    Y =   80.592  mm,    Z =   -160.369  mm,
    W =  -170.000 deg,    P =   0.000 deg,    R =   0.000 deg
};
P[340]{
   GP1:
    UF : 0, UT : 6,      CONFIG : 'N U T, 0, 0, 0',
    X =  557.291  mm,    Y =   85.393  mm,    Z =   -159.147  mm,
    W =  -170.000 deg,    P =   0.000 deg,    R =   0.000 deg
};
P[341]{
   GP1:
    UF : 0, UT : 6,      CONFIG : 'N U T, 0, 0, 0',
    X =  557.502  mm,    Y =   90.300  mm,    Z =   -157.973  mm,
    W =  -170.000 deg,    P =   0.000 deg,    R =   0.000 deg
};
P[342]{
   GP1:
    UF : 0, UT : 6,      CONFIG : 'N U T, 0, 0, 0',
    X =  557.815  mm,    Y =   94.031  mm,    Z =   -157.436  mm,
    W =  -172.469 deg,    P =   0.000 deg,    R =   0.000 deg
};
P[343]{
   GP1:
    UF : 0, UT : 6,      CONFIG : 'N U T, 0, 0, 0',
    X =  557.617  mm,    Y =   96.700  mm,    Z =   -157.202  mm,
    W =  -176.973 deg,    P =   0.000 deg,    R =   0.000 deg
};
P[344]{
   GP1:
    UF : 0, UT : 6,      CONFIG : 'N U T, 0, 0, 0',
    X =  557.563  mm,    Y =   100.484  mm,    Z =   -157.194  mm,
    W =  -177.283 deg,    P =   0.000 deg,    R =   0.000 deg
};
P[345]{
   GP1:
    UF : 0, UT : 6,      CONFIG : 'N U T, 0, 0, 0',
    X =  557.681  mm,    Y =   105.558  mm,    Z =   -157.056  mm,
    W =  -176.288 deg,    P =   0.000 deg,    R =   0.000 deg
};
P[346]{
   GP1:
    UF : 0, UT : 6,      CONFIG : 'N U T, 0, 0, 0',
    X =  557.617  mm,    Y =   110.638  mm,    Z =   -156.571  mm,
    W =  -175.616 deg,    P =   0.000 deg,    R =   0.000 deg
};
P[347]{
   GP1:
    UF : 0, UT : 6,      CONFIG : 'N U T, 0, 0, 0',
    X =  557.689  mm,    Y =   115.541  mm,    Z =   -156.004  mm,
    W =  -176.407 deg,    P =   0.000 deg,    R =   0.000 deg
};
P[348]{
   GP1:
    UF : 0, UT : 6,      CONFIG : 'N U T, 0, 0, 0',
    X =  557.566  mm,    Y =   120.556  mm,    Z =   -155.875  mm,
    W =  -178.307 deg,    P =   0.000 deg,    R =   0.000 deg
};
P[349]{
   GP1:
    UF : 0, UT : 6,      CONFIG : 'N U T, 0, 0, 0',
    X =  557.414  mm,    Y =   125.392  mm,    Z =   -155.863  mm,
    W =  -179.999 deg,    P =   0.000 deg,    R =   0.000 deg
};
P[350]{
   GP1:
    UF : 0, UT : 6,      CONFIG : 'N U T, 0, 0, 0',
    X =  557.468  mm,    Y =   130.184  mm,    Z =   -155.890  mm,
    W =  -180.952 deg,    P =   0.000 deg,    R =   0.000 deg
};
P[351]{
   GP1:
    UF : 0, UT : 6,      CONFIG : 'N U T, 0, 0, 0',
    X =  557.499  mm,    Y =   135.406  mm,    Z =   -156.041  mm,
    W =  -181.620 deg,    P =   0.000 deg,    R =   0.000 deg
};
P[352]{
   GP1:
    UF : 0, UT : 6,      CONFIG : 'N U T, 0, 0, 0',
    X =  557.325  mm,    Y =   140.303  mm,    Z =   -156.227  mm,
    W =  -181.955 deg,    P =   0.000 deg,    R =   0.000 deg
};
P[353]{
   GP1:
    UF : 0, UT : 6,      CONFIG : 'N U T, 0, 0, 0',
    X =  555.993  mm,    Y =   143.777  mm,    Z =   -156.350  mm,
    W =  -181.975 deg,    P =   0.000 deg,    R =   0.000 deg
};
P[354]{
   GP1:
    UF : 0, UT : 6,      CONFIG : 'N U T, 0, 0, 0',
    X =  557.781  mm,    Y =   209.351  mm,    Z =   -166.350  mm,
    W =  -180.000 deg,    P =   0.000 deg,    R =   0.000 deg
};
P[355]{
   GP1:
    UF : 0, UT : 6,      CONFIG : 'N U T, 0, 0, 0',
    X =  581.248  mm,    Y =   209.351  mm,    Z =   -166.350  mm,
    W =  -180.000 deg,    P =   0.000 deg,    R =   0.000 deg
};
P[356]{
   GP1:
    UF : 0, UT : 6,      CONFIG : 'N U T, 0, 0, 0',
    X =  579.461  mm,    Y =   143.777  mm,    Z =   -156.350  mm,
    W =  -181.975 deg,    P =   0.000 deg,    R =   0.000 deg
};
P[357]{
   GP1:
    UF : 0, UT : 6,      CONFIG : 'N U T, 0, 0, 0',
    X =  580.792  mm,    Y =   140.303  mm,    Z =   -156.227  mm,
    W =  -181.955 deg,    P =   0.000 deg,    R =   0.000 deg
};
P[358]{
   GP1:
    UF : 0, UT : 6,      CONFIG : 'N U T, 0, 0, 0',
    X =  580.966  mm,    Y =   135.406  mm,    Z =   -156.041  mm,
    W =  -181.620 deg,    P =   0.000 deg,    R =   0.000 deg
};
P[359]{
   GP1:
    UF : 0, UT : 6,      CONFIG : 'N U T, 0, 0, 0',
    X =  580.936  mm,    Y =   130.184  mm,    Z =   -155.890  mm,
    W =  -180.952 deg,    P =   0.000 deg,    R =   0.000 deg
};
P[360]{
   GP1:
    UF : 0, UT : 6,      CONFIG : 'N U T, 0, 0, 0',
    X =  580.882  mm,    Y =   125.392  mm,    Z =   -155.863  mm,
    W =  -179.999 deg,    P =   0.000 deg,    R =   0.000 deg
};
P[361]{
   GP1:
    UF : 0, UT : 6,      CONFIG : 'N U T, 0, 0, 0',
    X =  581.034  mm,    Y =   120.556  mm,    Z =   -155.875  mm,
    W =  -178.307 deg,    P =   0.000 deg,    R =   0.000 deg
};
P[362]{
   GP1:
    UF : 0, UT : 6,      CONFIG : 'N U T, 0, 0, 0',
    X =  581.156  mm,    Y =   115.541  mm,    Z =   -156.004  mm,
    W =  -176.407 deg,    P =   0.000 deg,    R =   0.000 deg
};
P[363]{
   GP1:
    UF : 0, UT : 6,      CONFIG : 'N U T, 0, 0, 0',
    X =  581.084  mm,    Y =   110.638  mm,    Z =   -156.571  mm,
    W =  -175.616 deg,    P =   0.000 deg,    R =   0.000 deg
};
P[364]{
   GP1:
    UF : 0, UT : 6,      CONFIG : 'N U T, 0, 0, 0',
    X =  581.148  mm,    Y =   105.558  mm,    Z =   -157.056  mm,
    W =  -176.288 deg,    P =   0.000 deg,    R =   0.000 deg
};
P[365]{
   GP1:
    UF : 0, UT : 6,      CONFIG : 'N U T, 0, 0, 0',
    X =  581.030  mm,    Y =   100.484  mm,    Z =   -157.194  mm,
    W =  -177.283 deg,    P =   0.000 deg,    R =   0.000 deg
};
P[366]{
   GP1:
    UF : 0, UT : 6,      CONFIG : 'N U T, 0, 0, 0',
    X =  581.084  mm,    Y =   96.700  mm,    Z =   -157.202  mm,
    W =  -176.973 deg,    P =   0.000 deg,    R =   0.000 deg
};
P[367]{
   GP1:
    UF : 0, UT : 6,      CONFIG : 'N U T, 0, 0, 0',
    X =  581.283  mm,    Y =   94.031  mm,    Z =   -157.436  mm,
    W =  -172.469 deg,    P =   0.000 deg,    R =   0.000 deg
};
P[368]{
   GP1:
    UF : 0, UT : 6,      CONFIG : 'N U T, 0, 0, 0',
    X =  580.969  mm,    Y =   90.300  mm,    Z =   -157.973  mm,
    W =  -170.000 deg,    P =   0.000 deg,    R =   0.000 deg
};
P[369]{
   GP1:
    UF : 0, UT : 6,      CONFIG : 'N U T, 0, 0, 0',
    X =  580.758  mm,    Y =   85.393  mm,    Z =   -159.147  mm,
    W =  -170.000 deg,    P =   0.000 deg,    R =   0.000 deg
};
P[370]{
   GP1:
    UF : 0, UT : 6,      CONFIG : 'N U T, 0, 0, 0',
    X =  581.144  mm,    Y =   80.592  mm,    Z =   -160.369  mm,
    W =  -170.000 deg,    P =   0.000 deg,    R =   0.000 deg
};
P[371]{
   GP1:
    UF : 0, UT : 6,      CONFIG : 'N U T, 0, 0, 0',
    X =  581.222  mm,    Y =   75.472  mm,    Z =   -161.431  mm,
    W =  -170.000 deg,    P =   0.000 deg,    R =   0.000 deg
};
P[372]{
   GP1:
    UF : 0, UT : 6,      CONFIG : 'N U T, 0, 0, 0',
    X =  580.871  mm,    Y =   71.559  mm,    Z =   -161.848  mm,
    W =  -170.627 deg,    P =   0.000 deg,    R =   0.000 deg
};
P[373]{
   GP1:
    UF : 0, UT : 6,      CONFIG : 'N U T, 0, 0, 0',
    X =  580.957  mm,    Y =   69.005  mm,    Z =   -162.502  mm,
    W =  -170.796 deg,    P =   0.000 deg,    R =   0.000 deg
};
P[374]{
   GP1:
    UF : 0, UT : 6,      CONFIG : 'N U T, 0, 0, 0',
    X =  580.690  mm,    Y =   65.196  mm,    Z =   -162.857  mm,
    W =  -170.000 deg,    P =   0.000 deg,    R =   0.000 deg
};
P[375]{
   GP1:
    UF : 0, UT : 6,      CONFIG : 'N U T, 0, 0, 0',
    X =  580.766  mm,    Y =   60.409  mm,    Z =   -163.896  mm,
    W =  -170.000 deg,    P =   0.000 deg,    R =   0.000 deg
};
P[376]{
   GP1:
    UF : 0, UT : 6,      CONFIG : 'N U T, 0, 0, 0',
    X =  580.993  mm,    Y =   55.903  mm,    Z =   -165.096  mm,
    W =  -170.000 deg,    P =   0.000 deg,    R =   0.000 deg
};
P[377]{
   GP1:
    UF : 0, UT : 6,      CONFIG : 'N U T, 0, 0, 0',
    X =  581.260  mm,    Y =   51.861  mm,    Z =   -166.352  mm,
    W =  -170.000 deg,    P =   0.000 deg,    R =   0.000 deg
};
P[378]{
   GP1:
    UF : 0, UT : 6,      CONFIG : 'N U T, 0, 0, 0',
    X =  580.630  mm,    Y =   49.397  mm,    Z =   -168.359  mm,
    W =  -170.000 deg,    P =   0.000 deg,    R =   0.000 deg
};
P[379]{
   GP1:
    UF : 0, UT : 6,      CONFIG : 'N U T, 0, 0, 0',
    X =  581.059  mm,    Y =   45.584  mm,    Z =   -168.944  mm,
    W =  -170.000 deg,    P =   0.000 deg,    R =   0.000 deg
};
P[380]{
   GP1:
    UF : 0, UT : 6,      CONFIG : 'N U T, 0, 0, 0',
    X =  581.060  mm,    Y =   40.642  mm,    Z =   -169.761  mm,
    W =  -170.632 deg,    P =   0.000 deg,    R =   0.000 deg
};
P[381]{
   GP1:
    UF : 0, UT : 6,      CONFIG : 'N U T, 0, 0, 0',
    X =  581.035  mm,    Y =   35.841  mm,    Z =   -170.623  mm,
    W =  -170.000 deg,    P =   0.000 deg,    R =   0.000 deg
};
P[382]{
   GP1:
    UF : 0, UT : 6,      CONFIG : 'N U T, 0, 0, 0',
    X =  580.855  mm,    Y =   31.725  mm,    Z =   -171.202  mm,
    W =  -170.000 deg,    P =   0.000 deg,    R =   0.000 deg
};
P[383]{
   GP1:
    UF : 0, UT : 6,      CONFIG : 'N U T, 0, 0, 0',
    X =  581.034  mm,    Y =   29.063  mm,    Z =   -172.785  mm,
    W =  -170.000 deg,    P =   0.000 deg,    R =   0.000 deg
};
P[384]{
   GP1:
    UF : 0, UT : 6,      CONFIG : 'N U T, 0, 0, 0',
    X =  581.083  mm,    Y =   25.412  mm,    Z =   -173.487  mm,
    W =  -170.000 deg,    P =   0.000 deg,    R =   0.000 deg
};
P[385]{
   GP1:
    UF : 0, UT : 6,      CONFIG : 'N U T, 0, 0, 0',
    X =  580.919  mm,    Y =   20.622  mm,    Z =   -175.547  mm,
    W =  -170.000 deg,    P =   0.000 deg,    R =   0.000 deg
};
P[386]{
   GP1:
    UF : 0, UT : 6,      CONFIG : 'N U T, 0, 0, 0',
    X =  580.962  mm,    Y =   16.439  mm,    Z =   -176.746  mm,
    W =  -170.000 deg,    P =   0.000 deg,    R =   0.000 deg
};
P[387]{
   GP1:
    UF : 0, UT : 6,      CONFIG : 'N U T, 0, 0, 0',
    X =  580.962  mm,    Y =   14.146  mm,    Z =   -177.826  mm,
    W =  -170.000 deg,    P =   0.000 deg,    R =   0.000 deg
};
P[388]{
   GP1:
    UF : 0, UT : 6,      CONFIG : 'N U T, 0, 0, 0',
    X =  581.094  mm,    Y =   10.392  mm,    Z =   -178.172  mm,
    W =  -170.000 deg,    P =   0.000 deg,    R =   0.000 deg
};
P[389]{
   GP1:
    UF : 0, UT : 6,      CONFIG : 'N U T, 0, 0, 0',
    X =  580.845  mm,    Y =   5.468  mm,    Z =   -179.319  mm,
    W =  -170.000 deg,    P =   0.000 deg,    R =   0.000 deg
};
P[390]{
   GP1:
    UF : 0, UT : 6,      CONFIG : 'N U T, 0, 0, 0',
    X =  580.865  mm,    Y =   0.682  mm,    Z =   -180.310  mm,
    W =  -170.000 deg,    P =   0.000 deg,    R =   0.000 deg
};
P[391]{
   GP1:
    UF : 0, UT : 6,      CONFIG : 'N U T, 0, 0, 0',
    X =  581.051  mm,    Y =   -3.082  mm,    Z =   -180.872  mm,
    W =  -170.000 deg,    P =   0.000 deg,    R =   0.000 deg
};
P[392]{
   GP1:
    UF : 0, UT : 6,      CONFIG : 'N U T, 0, 0, 0',
    X =  581.213  mm,    Y =   -5.928  mm,    Z =   -182.464  mm,
    W =  -170.000 deg,    P =   0.000 deg,    R =   0.000 deg
};
P[393]{
   GP1:
    UF : 0, UT : 6,      CONFIG : 'N U T, 0, 0, 0',
    X =  580.803  mm,    Y =   -9.681  mm,    Z =   -183.597  mm,
    W =  -170.000 deg,    P =   0.000 deg,    R =   0.000 deg
};
P[394]{
   GP1:
    UF : 0, UT : 6,      CONFIG : 'N U T, 0, 0, 0',
    X =  580.750  mm,    Y =   -14.798  mm,    Z =   -185.381  mm,
    W =  -170.000 deg,    P =   0.000 deg,    R =   0.000 deg
};
P[395]{
   GP1:
    UF : 0, UT : 6,      CONFIG : 'N U T, 0, 0, 0',
    X =  580.863  mm,    Y =   -19.316  mm,    Z =   -186.046  mm,
    W =  -170.000 deg,    P =   0.000 deg,    R =   0.000 deg
};
P[396]{
   GP1:
    UF : 0, UT : 6,      CONFIG : 'N U T, 0, 0, 0',
    X =  580.869  mm,    Y =   -23.095  mm,    Z =   -186.428  mm,
    W =  -170.000 deg,    P =   0.000 deg,    R =   0.000 deg
};
P[397]{
   GP1:
    UF : 0, UT : 6,      CONFIG : 'N U T, 0, 0, 0',
    X =  580.995  mm,    Y =   -26.004  mm,    Z =   -187.492  mm,
    W =  -170.000 deg,    P =   0.000 deg,    R =   0.000 deg
};
P[398]{
   GP1:
    UF : 0, UT : 6,      CONFIG : 'N U T, 0, 0, 0',
    X =  581.051  mm,    Y =   -29.614  mm,    Z =   -188.100  mm,
    W =  -170.000 deg,    P =   0.000 deg,    R =   0.000 deg
};
P[399]{
   GP1:
    UF : 0, UT : 6,      CONFIG : 'N U T, 0, 0, 0',
    X =  580.790  mm,    Y =   -34.128  mm,    Z =   -189.248  mm,
    W =  -170.000 deg,    P =   0.000 deg,    R =   0.000 deg
};
P[400]{
   GP1:
    UF : 0, UT : 6,      CONFIG : 'N U T, 0, 0, 0',
    X =  581.113  mm,    Y =   -39.180  mm,    Z =   -190.931  mm,
    W =  -170.000 deg,    P =   0.000 deg,    R =   0.000 deg
};
P[401]{
   GP1:
    UF : 0, UT : 6,      CONFIG : 'N U T, 0, 0, 0',
    X =  581.241  mm,    Y =   -43.141  mm,    Z =   -192.015  mm,
    W =  -170.000 deg,    P =   0.000 deg,    R =   0.000 deg
};
P[402]{
   GP1:
    UF : 0, UT : 6,      CONFIG : 'N U T, 0, 0, 0',
    X =  581.151  mm,    Y =   -46.008  mm,    Z =   -193.434  mm,
    W =  -170.000 deg,    P =   0.000 deg,    R =   0.000 deg
};
P[403]{
   GP1:
    UF : 0, UT : 6,      CONFIG : 'N U T, 0, 0, 0',
    X =  581.185  mm,    Y =   -49.972  mm,    Z =   -193.961  mm,
    W =  -170.000 deg,    P =   0.000 deg,    R =   0.000 deg
};
P[404]{
   GP1:
    UF : 0, UT : 6,      CONFIG : 'N U T, 0, 0, 0',
    X =  580.844  mm,    Y =   -54.803  mm,    Z =   -194.725  mm,
    W =  -171.994 deg,    P =   0.000 deg,    R =   0.000 deg
};
P[405]{
   GP1:
    UF : 0, UT : 6,      CONFIG : 'N U T, 0, 0, 0',
    X =  580.867  mm,    Y =   -59.655  mm,    Z =   -195.344  mm,
    W =  -172.031 deg,    P =   0.000 deg,    R =   0.000 deg
};
P[406]{
   GP1:
    UF : 0, UT : 6,      CONFIG : 'N U T, 0, 0, 0',
    X =  580.934  mm,    Y =   -64.567  mm,    Z =   -195.969  mm,
    W =  -170.859 deg,    P =   0.000 deg,    R =   0.000 deg
};
P[407]{
   GP1:
    UF : 0, UT : 6,      CONFIG : 'N U T, 0, 0, 0',
    X =  581.034  mm,    Y =   -68.079  mm,    Z =   -196.401  mm,
    W =  -170.000 deg,    P =   0.000 deg,    R =   0.000 deg
};
P[408]{
   GP1:
    UF : 0, UT : 6,      CONFIG : 'N U T, 0, 0, 0',
    X =  580.706  mm,    Y =   -70.707  mm,    Z =   -197.332  mm,
    W =  -170.000 deg,    P =   0.000 deg,    R =   0.000 deg
};
P[409]{
   GP1:
    UF : 0, UT : 6,      CONFIG : 'N U T, 0, 0, 0',
    X =  580.872  mm,    Y =   -74.823  mm,    Z =   -198.108  mm,
    W =  -170.000 deg,    P =   0.000 deg,    R =   0.000 deg
};
P[410]{
   GP1:
    UF : 0, UT : 6,      CONFIG : 'N U T, 0, 0, 0',
    X =  581.216  mm,    Y =   -79.841  mm,    Z =   -199.200  mm,
    W =  -170.000 deg,    P =   0.000 deg,    R =   0.000 deg
};
P[411]{
   GP1:
    UF : 0, UT : 6,      CONFIG : 'N U T, 0, 0, 0',
    X =  580.804  mm,    Y =   -84.558  mm,    Z =   -200.070  mm,
    W =  -170.131 deg,    P =   0.000 deg,    R =   0.000 deg
};
P[412]{
   GP1:
    UF : 0, UT : 6,      CONFIG : 'N U T, 0, 0, 0',
    X =  580.883  mm,    Y =   -89.263  mm,    Z =   -200.846  mm,
    W =  -170.000 deg,    P =   0.000 deg,    R =   0.000 deg
};
P[413]{
   GP1:
    UF : 0, UT : 6,      CONFIG : 'N U T, 0, 0, 0',
    X =  580.638  mm,    Y =   -93.227  mm,    Z =   -201.315  mm,
    W =  -170.000 deg,    P =   0.000 deg,    R =   0.000 deg
};
P[414]{
   GP1:
    UF : 0, UT : 6,      CONFIG : 'N U T, 0, 0, 0',
    X =  580.553  mm,    Y =   -95.915  mm,    Z =   -202.680  mm,
    W =  -170.000 deg,    P =   0.000 deg,    R =   0.000 deg
};
P[415]{
   GP1:
    UF : 0, UT : 6,      CONFIG : 'N U T, 0, 0, 0',
    X =  580.624  mm,    Y =   -99.462  mm,    Z =   -203.211  mm,
    W =  -170.000 deg,    P =   0.000 deg,    R =   0.000 deg
};
P[416]{
   GP1:
    UF : 0, UT : 6,      CONFIG : 'N U T, 0, 0, 0',
    X =  581.194  mm,    Y =   -104.424  mm,    Z =   -204.679  mm,
    W =  -170.000 deg,    P =   0.000 deg,    R =   0.000 deg
};
P[417]{
   GP1:
    UF : 0, UT : 6,      CONFIG : 'N U T, 0, 0, 0',
    X =  581.287  mm,    Y =   -108.148  mm,    Z =   -205.898  mm,
    W =  -170.000 deg,    P =   0.000 deg,    R =   0.000 deg
};
P[418]{
   GP1:
    UF : 0, UT : 6,      CONFIG : 'N U T, 0, 0, 0',
    X =  580.750  mm,    Y =   -110.557  mm,    Z =   -207.969  mm,
